; generated by PrusaSlicer 2.5.0-alpha3+win64 on 2022-08-01 at 15:57:48 UTC


;
;
; 

; external perimeters extrusion width = 0.45mm
; perimeters extrusion width = 0.45mm
; infill extrusion width = 0.45mm
; solid infill extrusion width = 0.45mm
; top infill extrusion width = 0.40mm
; first layer extrusion width = 0.42mm

; external perimeters extrusion width = 0.45mm
; perimeters extrusion width = 0.45mm
; infill extrusion width = 0.45mm
; solid infill extrusion width = 0.45mm
; top infill extrusion width = 0.40mm
; first layer extrusion width = 0.42mm

; external perimeters extrusion width = 0.45mm
; perimeters extrusion width = 0.45mm
; infill extrusion width = 0.45mm
; solid infill extrusion width = 0.45mm
; top infill extrusion width = 0.40mm
; first layer extrusion width = 0.42mm

M73 P0 R17
M73 Q0 S17
M201 X1000 Y1000 Z200 E5000 ; sets maximum accelerations, mm/sec^2
M203 X200 Y200 Z12 E120 ; sets maximum feedrates, mm / sec
M204 P1250 R1250 T1250 ; sets acceleration (P, T) and retract acceleration (R), mm/sec^2
M205 X8.00 Y8.00 Z0.40 E4.50 ; sets the jerk limits, mm/sec
M205 S0 T0 ; sets the minimum extruding and travel feed rate, mm/sec
M107
;TYPE:Custom
M862.3 P "MK3S" ; printer model check
M862.1 P0.4 ; nozzle diameter check
M115 U3.11.0 ; tell printer latest fw version
G90 ; use absolute coordinates
M83 ; extruder relative mode
M104 S230 ; set extruder temp
M140 S85 ; set bed temp
M190 S85 ; wait for bed temp
M109 S230 ; wait for extruder temp
G28 W ; home all without mesh bed level
G80 ; mesh bed leveling
G1 Z0.2 F720
G1 Y-3 F1000 ; go outside print area
G92 E0
G1 X60 E9 F1000 ; intro line
G1 X100 E12.5 F1000 ; intro line
G92 E0
M221 S95

; Don't change E values below. Excessive value can damage the printer.

M907 E538 ; set extruder motor current
G21 ; set units to millimeters
G90 ; use absolute coordinates
M83 ; use relative distances for extrusion
M900 K0.08 ; Filament gcode LA 1.5
M900 K45 ; Filament gcode LA 1.0
M107
;LAYER_CHANGE
;Z:0.2
;HEIGHT:0.2
;BEFORE_LAYER_CHANGE
G92 E0.0
;0.2


G1 E-1 F2100
G1 Z.2 F720
;AFTER_LAYER_CHANGE
;0.2
G1 Z.4
G1 X108.579 Y84.017 F10800
G1 Z.2 F720
G1 E1 F2100
M204 S800
;TYPE:Skirt/Brim
;WIDTH:0.42
G1 F1200
G1 X109.017 Y83.579 E.01946
G1 X110.053 Y82.784 E.04093
G1 X110.59 Y82.474 E.01946
G1 X111.796 Y81.974 E.04093
G1 X112.396 Y81.814 E.01946
G1 X114 Y81.623 E.05066
G1 X136.31 Y81.643 E.69952
G1 X137.604 Y81.814 E.04093
G1 X138.204 Y81.974 E.01946
G1 X139.41 Y82.474 E.04093
G1 X139.947 Y82.784 E.01946
G1 X140.983 Y83.579 E.04093
G1 X141.421 Y84.017 E.01946
G1 X142.216 Y85.053 E.04093
G1 X142.526 Y85.59 E.01946
G1 X143.026 Y86.796 E.04093
G1 X143.186 Y87.396 E.01946
G1 X143.377 Y89 E.05066
G1 X143.377 Y121 E1.00334
G1 X143.186 Y122.604 E.05066
M73 P1 R17
M73 Q1 S17
G1 X143.026 Y123.204 E.01946
G1 X142.526 Y124.41 E.04093
G1 X142.216 Y124.947 E.01946
G1 X141.421 Y125.983 E.04093
G1 X140.983 Y126.421 E.01946
G1 X139.947 Y127.216 E.04093
G1 X139.41 Y127.526 E.01946
G1 X138.204 Y128.026 E.04093
G1 X137.604 Y128.186 E.01946
G1 X136.31 Y128.357 E.04093
G1 X114 Y128.377 E.69952
G1 X112.396 Y128.186 E.05066
G1 X111.796 Y128.026 E.01946
G1 X110.59 Y127.526 E.04093
G1 X110.053 Y127.216 E.01946
G1 X109.017 Y126.421 E.04093
G1 X108.579 Y125.983 E.01946
G1 X107.784 Y124.947 E.04093
G1 X107.474 Y124.41 E.01946
G1 X106.974 Y123.204 E.04093
G1 X106.814 Y122.604 E.01946
G1 X106.643 Y121.31 E.04093
G1 X106.623 Y89 E1.01307
G1 X106.814 Y87.396 E.05066
G1 X106.974 Y86.796 E.01946
G1 X107.474 Y85.59 E.04093
G1 X107.784 Y85.053 E.01946
G1 X108.542 Y84.065 E.03905
M204 S1000
; printing object belt-mount.stl id:0 copy 0
;WIPE_START
G1 F8640
G1 X109.017 Y83.579 E-.15703
G1 X110.053 Y82.784 E-.30139
G1 X110.59 Y82.474 E-.14329
G1 X111.796 Y81.974 E-.30139
G1 X111.992 Y81.922 E-.04691
;WIPE_END
G1 E-.05 F2100
G1 Z.4 F720
G1 X139.666 Y91.139 F10800
G1 Z.2 F720
G1 E1 F2100
M204 S800
;TYPE:Perimeter
;WIDTH:0.340205
G1 F1200
G1 X139.314 Y91.629 E.01492
;WIDTH:0.332428
G1 X138.99 Y92.017 E.01215
G1 X138.234 Y92.61 E.02314
;WIDTH:0.311456
G1 X138.01 Y92.74 E.00579
;WIDTH:0.332427
G1 X137.118 Y93.098 E.02314
G1 X136.62 Y93.185 E.01215
;WIDTH:0.344068
G1 X135.941 Y93.251 E.01709
;WIDTH:0.389647
G1 X135.157 Y93.228 E.0226
;WIDTH:0.419999
G1 X133.951 Y93.213 E.03784
G1 X116.049 Y93.213 E.56128
G1 X114.843 Y93.238 E.03785
;WIDTH:0.370826
M73 P1 R16
G1 X114.603 Y93.251 E.00653
;WIDTH:0.344069
G1 X114.039 Y93.25 E.01413
G1 X113.38 Y93.185 E.0166
;WIDTH:0.332427
G1 X112.882 Y93.098 E.01215
G1 X111.99 Y92.74 E.02314
;WIDTH:0.311457
G1 X111.766 Y92.61 E.00579
;WIDTH:0.332429
G1 X111.01 Y92.017 E.02314
G1 X110.686 Y91.629 E.01215
;WIDTH:0.340207
G1 X110.315 Y91.105 E.01588
G1 X110.066 Y90.555 E.01492
;WIDTH:0.33243
G1 X109.892 Y90.081 E.01215
G1 X109.756 Y89.13 E.02314
;WIDTH:0.311456
G1 X109.756 Y88.87 E.00579
;WIDTH:0.33243
G1 X109.892 Y87.919 E.02314
G1 X110.066 Y87.445 E.01215
;WIDTH:0.340207
G1 X110.334 Y86.861 E.01588
G1 X110.686 Y86.371 E.01492
;WIDTH:0.332429
G1 X111.01 Y85.983 E.01215
G1 X111.766 Y85.39 E.02314
;WIDTH:0.311457
G1 X111.99 Y85.26 E.00579
;WIDTH:0.332427
G1 X112.882 Y84.902 E.02314
G1 X113.38 Y84.815 E.01215
;WIDTH:0.344064
G1 X114.059 Y84.749 E.01709
;WIDTH:0.389598
G1 X114.843 Y84.772 E.0226
;WIDTH:0.419999
G1 X116.049 Y84.787 E.03784
G1 X134.555 Y84.778 E.58022
;WIDTH:0.394718
G1 X135.158 Y84.766 E.01765
;WIDTH:0.369436
G1 X135.397 Y84.752 E.00649
;WIDTH:0.342088
G1 X135.991 Y84.753 E.01478
G1 X136.62 Y84.815 E.01573
;WIDTH:0.332427
G1 X137.118 Y84.902 E.01215
G1 X138.01 Y85.26 E.02314
;WIDTH:0.311456
G1 X138.234 Y85.39 E.00579
;WIDTH:0.332429
G1 X138.99 Y85.983 E.02314
G1 X139.314 Y86.371 E.01215
;WIDTH:0.340205
G1 X139.685 Y86.895 E.01588
G1 X139.934 Y87.445 E.01492
;WIDTH:0.332429
G1 X140.108 Y87.919 E.01215
G1 X140.257 Y89.018 E.0267
;WIDTH:0.31392
G1 X140.244 Y89.13 E.00254
;WIDTH:0.332428
G1 X140.108 Y90.081 E.02314
G1 X139.934 Y90.555 E.01215
;WIDTH:0.340205
G1 X139.691 Y91.084 E.0144
M204 S1000
;WIPE_START
G1 F8640
G1 X139.314 Y91.629 E-.15303
;WIPE_END
G1 E-.84697 F2100
G1 Z.4 F720
G1 X132.808 Y91.446 F10800
G1 Z.2 F720
G1 E1 F2100
M204 S800
;WIDTH:0.419999
G1 F1200
G1 X132.245 Y90.471 E.03529
G1 X132.178 Y90.287 E.00616
G1 X131.968 Y89.098 E.03784
G1 X131.968 Y88.902 E.00616
G1 X132.178 Y87.713 E.03784
G1 X132.245 Y87.529 E.00616
G1 X132.848 Y86.484 E.03784
G1 X132.975 Y86.333 E.00616
G1 X133.899 Y85.557 E.03784
G1 X134.069 Y85.459 E.00616
G1 X134.64 Y85.265 E.01892
;WIDTH:0.394718
G1 X135.212 Y85.07 E.01765
;WIDTH:0.369436
G1 X135.971 Y85.051 E.02063
;WIDTH:0.342088
G1 X136.603 Y85.072 E.01573
;WIDTH:0.332427
G1 X137.013 Y85.172 E.01014
G1 X137.912 Y85.51 E.02314
;WIDTH:0.311456
G1 X138.066 Y85.599 E.00397
;WIDTH:0.332429
G1 X138.809 Y86.209 E.02314
G1 X139.1 Y86.513 E.01014
;WIDTH:0.340205
G1 X139.419 Y87.026 E.01492
G1 X139.703 Y87.559 E.01492
;WIDTH:0.332429
G1 X139.822 Y87.963 E.01014
G1 X139.978 Y88.911 E.02314
;WIDTH:0.311455
G1 X139.978 Y89.089 E.00397
;WIDTH:0.332428
G1 X139.822 Y90.037 E.02314
G1 X139.703 Y90.441 E.01014
;WIDTH:0.340205
G1 X139.419 Y90.974 E.01492
G1 X139.1 Y91.487 E.01492
;WIDTH:0.332428
G1 X138.809 Y91.791 E.01014
G1 X138.066 Y92.401 E.02314
;WIDTH:0.311456
G1 X137.912 Y92.49 E.00397
;WIDTH:0.332427
G1 X137.013 Y92.828 E.02314
G1 X136.603 Y92.928 E.01014
;WIDTH:0.344068
G1 X135.397 Y92.95 E.03022
;WIDTH:0.389647
G1 X135.208 Y92.939 E.00544
;WIDTH:0.419999
G1 X134.069 Y92.541 E.03784
G1 X133.899 Y92.443 E.00616
M73 Q2 S17
G1 X132.975 Y91.667 E.03784
G1 X132.838 Y91.498 E.00682
M204 S1000
G1 X133.117 Y91.227 F10800
M204 S800
;TYPE:External perimeter
G1 F1200
G1 X132.549 Y90.221 E.03621
G1 X132.339 Y89.033 E.03784
G1 X132.549 Y87.779 E.03986
M73 P2 R16
G1 X133.175 Y86.672 E.03986
G1 X134.141 Y85.846 E.03986
G1 X135.332 Y85.401 E.03986
G1 X136.603 Y85.389 E.03986
G1 X137.802 Y85.813 E.03986
G1 X138.825 Y86.672 E.04188
G1 X139.429 Y87.717 E.03784
G1 X139.661 Y88.967 E.03986
G1 X139.494 Y89.979 E.03216
G1 X139.429 Y90.283 E.00973
G1 X138.825 Y91.328 E.03784
G1 X137.859 Y92.154 E.03986
G1 X136.603 Y92.611 E.04188
G1 X135.332 Y92.599 E.03986
G1 X134.141 Y92.154 E.03986
M73 Q2 S16
G1 X133.217 Y91.378 E.03784
G1 X133.147 Y91.279 E.00381
M204 S1000
G1 X132.718 Y91.266 F10800
;WIPE_START
G1 F8640
G1 X132.549 Y90.221 E-.28049
G1 X132.339 Y89.033 E-.27866
G1 X132.549 Y87.779 E-.29356
G1 X132.756 Y87.412 E-.0973
;WIPE_END
G1 E-.05 F2100
G1 Z.4 F720
G1 X118.032 Y88.956 F10800
G1 Z.2 F720
G1 E1 F2100
M204 S800
;TYPE:Perimeter
G1 F1200
G1 X118.032 Y89.098 E.00445
G1 X117.822 Y90.287 E.03784
G1 X117.755 Y90.471 E.00616
G1 X117.152 Y91.516 E.03784
G1 X117.025 Y91.667 E.00616
G1 X116.101 Y92.443 E.03784
G1 X115.931 Y92.541 E.00616
G1 X114.788 Y92.93 E.03785
;WIDTH:0.370826
G1 X114.059 Y92.95 E.0199
;WIDTH:0.344069
G1 X113.397 Y92.928 E.0166
;WIDTH:0.332427
G1 X112.987 Y92.828 E.01014
G1 X112.088 Y92.49 E.02314
;WIDTH:0.311457
G1 X111.934 Y92.401 E.00397
;WIDTH:0.332429
G1 X111.191 Y91.791 E.02314
G1 X110.9 Y91.487 E.01014
;WIDTH:0.340207
G1 X110.581 Y90.974 E.01492
G1 X110.297 Y90.441 E.01492
;WIDTH:0.305522
G1 X110.234 Y90.277 E.00385
;WIDTH:0.311456
G1 X110.022 Y89.089 E.02695
G1 X110.022 Y88.911 E.00397
;WIDTH:0.33243
G1 X110.178 Y87.963 E.02314
G1 X110.297 Y87.559 E.01014
;WIDTH:0.340207
G1 X110.581 Y87.026 E.01492
G1 X110.9 Y86.513 E.01492
;WIDTH:0.332429
G1 X111.191 Y86.209 E.01014
G1 X111.934 Y85.599 E.02314
;WIDTH:0.311457
G1 X112.088 Y85.51 E.00397
;WIDTH:0.332427
G1 X112.987 Y85.172 E.02314
G1 X113.397 Y85.072 E.01014
;WIDTH:0.344064
G1 X114.604 Y85.05 E.03023
;WIDTH:0.389598
G1 X114.792 Y85.061 E.00543
;WIDTH:0.419999
G1 X115.931 Y85.459 E.03784
G1 X116.101 Y85.557 E.00616
G1 X117.025 Y86.333 E.03784
G1 X117.152 Y86.484 E.00616
G1 X117.755 Y87.529 E.03784
G1 X117.822 Y87.713 E.00616
G1 X118.031 Y88.897 E.03767
M204 S1000
G1 X117.648 Y88.897 F10800
M204 S800
;TYPE:External perimeter
G1 F1200
G1 X117.661 Y89.033 E.00429
G1 X117.451 Y90.221 E.03784
G1 X116.783 Y91.378 E.04188
G1 X115.802 Y92.187 E.03986
G1 X114.668 Y92.599 E.03784
G1 X114.059 Y92.611 E.0191
G1 X113.397 Y92.611 E.02077
G1 X112.198 Y92.187 E.03986
G1 X111.175 Y91.328 E.04188
G1 X110.571 Y90.283 E.03784
G1 X110.339 Y89.033 E.03986
G1 X110.571 Y87.717 E.04188
G1 X111.175 Y86.672 E.03784
G1 X112.141 Y85.846 E.03986
G1 X113.397 Y85.389 E.04188
G1 X114.668 Y85.401 E.03986
G1 X115.859 Y85.846 E.03986
G1 X116.825 Y86.672 E.03986
G1 X117.429 Y87.717 E.03784
G1 X117.638 Y88.837 E.03573
M204 S1000
G1 X117.777 Y88.943 F10800
;WIPE_START
G1 F8640
G1 X117.661 Y89.033 E-.04539
G1 X117.451 Y90.221 E-.27866
G1 X116.783 Y91.378 E-.30843
G1 X115.802 Y92.187 E-.29356
G1 X115.704 Y92.222 E-.02396
;WIPE_END
G1 E-.05 F2100
G1 Z.4 F720
G1 X139.972 Y91.293 F10800
G1 Z.2 F720
G1 E1 F2100
M204 S800
G1 F1200
G1 X139.243 Y92.243 E.03754
G1 X138.293 Y92.972 E.03754
G1 X137.187 Y93.43 E.03754
G1 X135.973 Y93.59 E.03839
G1 X114.027 Y93.59 E.68811
G1 X112.813 Y93.43 E.03839
G1 X111.707 Y92.972 E.03754
G1 X110.757 Y92.243 E.03754
G1 X110.028 Y91.293 E.03754
G1 X109.57 Y90.187 E.03754
G1 X109.414 Y89 E.03754
G1 X109.57 Y87.813 E.03754
G1 X110.028 Y86.707 E.03754
G1 X110.757 Y85.757 E.03754
G1 X111.707 Y85.028 E.03754
G1 X112.813 Y84.57 E.03754
G1 X114.027 Y84.41 E.03839
G1 X136.003 Y84.414 E.68905
G1 X137.187 Y84.57 E.03744
G1 X138.293 Y85.028 E.03754
G1 X139.243 Y85.757 E.03754
G1 X139.972 Y86.707 E.03754
G1 X140.438 Y87.875 E.03945
G1 X140.579 Y89.06 E.0374
G1 X140.43 Y90.187 E.03564
G1 X139.995 Y91.238 E.03566
M204 S1000
G1 X139.572 Y91.293 F10800
;WIPE_START
G1 F8640
G1 X139.243 Y92.243 E-.28986
G1 X138.293 Y92.972 E-.27646
G1 X137.187 Y93.43 E-.27646
G1 X136.727 Y93.491 E-.10721
;WIPE_END
G1 E-.05 F2100
G1 Z.4 F720
G1 X134.029 Y85.355 F10800
G1 Z.2 F720
G1 E1 F2100
M204 S800
;TYPE:Solid infill
;WIDTH:0.424494
G1 F1200
G1 X133.748 Y85.073 E.01263
G1 X133.208 Y85.073 E.01712
G1 X133.586 Y85.451 E.01695
G1 X133.292 Y85.697 E.01215
G1 X132.668 Y85.073 E.028
G1 X132.129 Y85.073 E.01712
G1 X132.999 Y85.943 E.03905
G1 X132.786 Y86.122 E.0088
G1 X132.719 Y86.203 E.00335
G1 X131.589 Y85.073 E.05069
G1 X131.049 Y85.073 E.01712
G1 X132.499 Y86.523 E.06506
G1 X132.302 Y86.865 E.01253
G1 X130.509 Y85.073 E.08041
G1 X129.97 Y85.073 E.01712
G1 X132.104 Y87.207 E.09577
G1 X131.996 Y87.394 E.00687
G1 X131.931 Y87.573 E.00604
G1 X129.43 Y85.073 E.11221
G1 X128.89 Y85.073 E.01712
G1 X131.839 Y88.022 E.13232
G1 X131.762 Y88.484 E.01487
G1 X128.351 Y85.072 E.15307
M73 Q3 S16
G1 X127.811 Y85.072 E.01712
G1 X131.684 Y88.946 E.17381
M73 P3 R16
G1 X131.675 Y89 E.00174
G1 X131.771 Y89.572 E.01841
G1 X127.271 Y85.072 E.20192
G1 X126.731 Y85.072 E.01712
G1 X132.126 Y90.467 E.24205
M204 S1000
;WIPE_START
G1 F8640
G1 X129.217 Y87.557 E-.95
;WIPE_END
G1 E-.05 F2100
G1 Z.4 F720
G1 X134.219 Y93.1 F10800
G1 Z.2 F720
G1 E1 F2100
M204 S800
G1 F1200
G1 X126.192 Y85.072 E.36021
G1 X125.652 Y85.072 E.01712
G1 X133.51 Y92.93 E.3526
G1 X132.97 Y92.93 E.01712
G1 X125.112 Y85.072 E.3526
G1 X124.572 Y85.072 E.01712
G1 X132.431 Y92.93 E.35261
G1 X131.891 Y92.93 E.01712
G1 X124.033 Y85.072 E.35261
G1 X123.493 Y85.072 E.01712
G1 X131.352 Y92.93 E.35261
G1 X130.812 Y92.93 E.01712
G1 X122.953 Y85.071 E.35262
G1 X122.414 Y85.071 E.01712
G1 X130.272 Y92.93 E.35262
G1 X129.733 Y92.93 E.01712
G1 X121.874 Y85.071 E.35263
G1 X121.334 Y85.071 E.01712
G1 X129.193 Y92.93 E.35263
G1 X128.653 Y92.93 E.01712
G1 X120.794 Y85.071 E.35264
G1 X120.255 Y85.071 E.01712
G1 X128.114 Y92.93 E.35264
G1 X127.574 Y92.93 E.01712
G1 X119.715 Y85.071 E.35264
G1 X119.175 Y85.071 E.01712
G1 X127.035 Y92.93 E.35265
G1 X126.495 Y92.93 E.01712
G1 X118.636 Y85.071 E.35265
G1 X118.096 Y85.071 E.01712
M73 P4 R16
M73 Q4 S16
G1 X125.955 Y92.93 E.35266
G1 X125.416 Y92.93 E.01712
G1 X117.556 Y85.071 E.35266
G1 X117.016 Y85.07 E.01712
G1 X124.876 Y92.93 E.35267
G1 X124.336 Y92.93 E.01712
G1 X116.477 Y85.07 E.35267
G1 X115.937 Y85.07 E.01712
G1 X123.797 Y92.93 E.35268
G1 X123.257 Y92.93 E.01712
G1 X118.124 Y87.797 E.23031
G1 X118.24 Y88.452 E.02111
G1 X122.718 Y92.93 E.20092
G1 X122.178 Y92.93 E.01712
G1 X118.312 Y89.064 E.17347
G1 X118.242 Y89.534 E.01508
G1 X121.638 Y92.93 E.15238
G1 X121.099 Y92.93 E.01712
G1 X118.161 Y89.993 E.1318
G1 X118.099 Y90.344 E.01131
G1 X118.066 Y90.437 E.00313
G1 X120.559 Y92.93 E.11188
G1 X120.019 Y92.93 E.01712
G1 X117.891 Y90.802 E.0955
G1 X117.693 Y91.144 E.01253
G1 X119.48 Y92.93 E.08015
G1 X118.94 Y92.93 E.01712
G1 X117.496 Y91.486 E.0648
G1 X117.393 Y91.665 E.00656
G1 X117.275 Y91.805 E.00579
G1 X118.401 Y92.93 E.05049
G1 X117.861 Y92.93 E.01712
G1 X116.994 Y92.063 E.03892
G1 X116.7 Y92.309 E.01215
G1 X117.321 Y92.93 E.02787
G1 X116.782 Y92.93 E.01712
G1 X116.407 Y92.555 E.01682
G1 X116.276 Y92.665 E.0054
G1 X116.086 Y92.774 E.00697
G1 X116.412 Y93.1 E.0146
M204 S1000
; stop printing object belt-mount.stl id:0 copy 0
; printing object belt-mount.stl id:1 copy 0
;WIPE_START
G1 F8640
G1 X116.086 Y92.774 E-.10627
G1 X116.276 Y92.665 E-.05072
G1 X116.407 Y92.555 E-.03927
G1 X116.782 Y92.93 E-.12242
G1 X117.321 Y92.93 E-.1246
G1 X116.7 Y92.309 E-.20281
G1 X116.994 Y92.063 E-.08844
G1 X117.653 Y92.723 E-.21547
;WIPE_END
G1 E-.05 F2100
G1 Z.4 F720
G1 X139.666 Y107.139 F10800
G1 Z.2 F720
G1 E1 F2100
M204 S800
;TYPE:Perimeter
;WIDTH:0.340205
G1 F1200
G1 X139.314 Y107.629 E.01492
;WIDTH:0.332428
G1 X138.99 Y108.017 E.01215
G1 X138.234 Y108.61 E.02314
;WIDTH:0.311456
G1 X138.01 Y108.74 E.00579
;WIDTH:0.332427
G1 X137.118 Y109.098 E.02314
G1 X136.62 Y109.185 E.01215
;WIDTH:0.344068
G1 X135.941 Y109.251 E.01709
;WIDTH:0.389647
G1 X135.157 Y109.228 E.0226
;WIDTH:0.419999
G1 X133.951 Y109.213 E.03784
G1 X116.049 Y109.213 E.56128
G1 X114.843 Y109.238 E.03785
;WIDTH:0.370826
G1 X114.603 Y109.251 E.00653
;WIDTH:0.344069
G1 X114.039 Y109.25 E.01413
G1 X113.38 Y109.185 E.0166
;WIDTH:0.332427
G1 X112.882 Y109.098 E.01215
G1 X111.99 Y108.74 E.02314
;WIDTH:0.311457
G1 X111.766 Y108.61 E.00579
;WIDTH:0.332429
G1 X111.01 Y108.017 E.02314
G1 X110.686 Y107.629 E.01215
;WIDTH:0.340207
G1 X110.315 Y107.105 E.01588
G1 X110.066 Y106.555 E.01492
;WIDTH:0.33243
