; generated by PrusaSlicer 2.5.0-alpha3+win64 on 2022-07-31 at 19:07:03 UTC


;
;
; 

; external perimeters extrusion width = 0.45mm
; perimeters extrusion width = 0.45mm
; infill extrusion width = 0.45mm
; solid infill extrusion width = 0.45mm
; top infill extrusion width = 0.40mm
; support material extrusion width = 0.35mm
; first layer extrusion width = 0.42mm

M73 P0 R107
M73 Q0 S107
M201 X1000 Y1000 Z200 E5000 ; sets maximum accelerations, mm/sec^2
M203 X200 Y200 Z12 E120 ; sets maximum feedrates, mm / sec
M204 P1250 R1250 T1250 ; sets acceleration (P, T) and retract acceleration (R), mm/sec^2
M205 X8.00 Y8.00 Z0.40 E4.50 ; sets the jerk limits, mm/sec
M205 S0 T0 ; sets the minimum extruding and travel feed rate, mm/sec
M107
;TYPE:Custom
M862.3 P "MK3S" ; printer model check
M862.1 P0.4 ; nozzle diameter check
M115 U3.11.0 ; tell printer latest fw version
G90 ; use absolute coordinates
M83 ; extruder relative mode
M104 S230 ; set extruder temp
M140 S85 ; set bed temp
M190 S85 ; wait for bed temp
M109 S230 ; wait for extruder temp
G28 W ; home all without mesh bed level
G80 ; mesh bed leveling
G1 Z0.2 F720
G1 Y-3 F1000 ; go outside print area
G92 E0
G1 X60 E9 F1000 ; intro line
G1 X100 E12.5 F1000 ; intro line
G92 E0
M221 S95

; Don't change E values below. Excessive value can damage the printer.

M907 E538 ; set extruder motor current
G21 ; set units to millimeters
G90 ; use absolute coordinates
M83 ; use relative distances for extrusion
M900 K0.08 ; Filament gcode LA 1.5
M900 K45 ; Filament gcode LA 1.0
M107
;LAYER_CHANGE
;Z:0.2
;HEIGHT:0.2
;BEFORE_LAYER_CHANGE
G92 E0.0
;0.2


G1 E-1 F2100
G1 Z.2 F720
;AFTER_LAYER_CHANGE
;0.2
G1 Z.4
G1 X61.312 Y68.088 F10800
G1 Z.2 F720
G1 E1 F2100
M204 S800
;TYPE:Skirt/Brim
;WIDTH:0.42
G1 F1200
G1 X62.399 Y67.109 E.04585
G1 X63.314 Y66.454 E.03529
G1 X65.153 Y65.47 E.06539
G1 X66.667 Y64.934 E.05035
G1 X68.315 Y64.589 E.05279
G1 X69.839 Y64.475 E.04794
G1 X180.045 Y64.473 E3.45541
G1 X180.964 Y64.511 E.02885
G1 X182.313 Y64.693 E.0427
G1 X183.333 Y64.934 E.03286
G1 X184.549 Y65.347 E.04026
G1 X186.278 Y66.2 E.06044
G1 X187.345 Y66.913 E.04025
G1 X188.215 Y67.627 E.0353
G1 X189.123 Y68.535 E.04025
G1 X189.791 Y69.343 E.03286
G1 X190.55 Y70.472 E.04269
G1 X191.048 Y71.395 E.03286
G1 X191.837 Y73.492 E.07025
G1 X192.071 Y74.513 E.03286
G1 X192.239 Y75.786 E.04026
G1 X192.245 Y134.136 E1.82952
G1 X192.057 Y135.563 E.04513
G1 X191.676 Y137.043 E.04792
G1 X191.28 Y138.097 E.03529
G1 X190.59 Y139.461 E.04792
G1 X189.791 Y140.657 E.04513
G1 X188.794 Y141.816 E.04792
G1 X187.601 Y142.891 E.05035
G1 X186.686 Y143.546 E.03529
G1 X184.847 Y144.53 E.06539
G1 X183.333 Y145.066 E.05035
G1 X181.685 Y145.411 E.05279
G1 X180.161 Y145.525 E.04794
G1 X69.8 Y145.524 E3.46027
G1 X68.315 Y145.411 E.04672
M73 P0 R106
G1 X66.742 Y145.087 E.05035
G1 X65.379 Y144.624 E.04513
G1 X64.002 Y143.962 E.04791
G1 X62.655 Y143.087 E.05035
G1 X61.785 Y142.373 E.0353
G1 X60.715 Y141.282 E.04791
G1 X59.704 Y139.936 E.05279
G1 X58.952 Y138.605 E.04792
G1 X58.324 Y137.043 E.05278
G1 X57.929 Y135.487 E.05035
G1 X57.726 Y133.45 E.06419
G1 X57.744 Y76.03 E1.80034
G1 X57.929 Y74.513 E.04792
G1 X58.184 Y73.417 E.0353
G1 X58.69 Y71.975 E.04792
G1 X59.41 Y70.539 E.05035
G1 X60.209 Y69.343 E.04513
G1 X61.268 Y68.128 E.05052
M204 S1000
;WIPE_START
G1 F8640
G1 X62.399 Y67.109 E-.35149
G1 X63.314 Y66.454 E-.2599
G1 X64.607 Y65.762 E-.33861
;WIPE_END
G1 E-.05 F2100
G1 Z.4 F720
G1 X63.191 Y69.964 F10800
G1 Z.2 F720
G1 E1 F2100
M204 S800
G1 F1200
G1 X64.11 Y69.152 E.03846
G1 X65.125 Y68.464 E.03844
G1 X66.243 Y67.901 E.03924
G1 X67.423 Y67.489 E.03921
G1 X68.649 Y67.232 E.03924
G1 X69.925 Y67.137 E.04012
G1 X180.046 Y67.137 E3.45279
G1 X180.862 Y67.177 E.02561
G1 X181.961 Y67.338 E.03483
G1 X182.711 Y67.529 E.02426
G1 X183.647 Y67.855 E.03108
G1 X184.457 Y68.234 E.02803
G1 X185.311 Y68.737 E.03109
G1 X186.003 Y69.243 E.02686
G1 X186.655 Y69.814 E.02719
G1 X187.329 Y70.53 E.03082
G1 X187.935 Y71.324 E.03132
G1 X188.409 Y72.093 E.02831
G1 X188.819 Y72.921 E.02899
G1 X189.327 Y74.419 E.04957
G1 X189.502 Y75.296 E.02805
G1 X189.595 Y76.163 E.02735
G1 X189.595 Y133.84 E1.8084
G1 X189.466 Y134.917 E.03403
G1 X189.219 Y135.969 E.03389
G1 X188.797 Y137.127 E.03863
G1 X188.218 Y138.237 E.03926
G1 X187.549 Y139.202 E.03682
G1 X186.75 Y140.094 E.03754
G1 X185.865 Y140.866 E.03683
G1 X184.873 Y141.537 E.03755
G1 X183.735 Y142.108 E.03994
G1 X182.553 Y142.518 E.0392
G1 X181.327 Y142.771 E.03925
G1 X180.075 Y142.863 E.03936
G1 X69.924 Y142.863 E3.45373
G1 X68.668 Y142.77 E.03949
G1 X67.462 Y142.522 E.03859
G1 X66.299 Y142.122 E.03858
G1 X65.195 Y141.576 E.0386
G1 X64.17 Y140.893 E.03863
G1 X63.241 Y140.086 E.03859
G1 X62.408 Y139.147 E.03937
G1 X61.716 Y138.128 E.03861
G1 X61.154 Y137.012 E.03917
G1 X60.739 Y135.829 E.03931
G1 X60.482 Y134.601 E.03935
G1 X60.387 Y133.325 E.04011
G1 X60.393 Y76.509 E1.78143
G1 X60.494 Y75.319 E.03746
G1 X60.755 Y74.116 E.03859
G1 X61.166 Y72.958 E.03852
G1 X61.71 Y71.884 E.03775
G1 X62.382 Y70.886 E.03772
G1 X63.151 Y70.009 E.03657
M204 S1000
G1 X63.434 Y70.258 F10800
M204 S800
G1 F1200
G1 X64.35 Y69.443 E.03844
G1 X65.326 Y68.784 E.03693
G1 X66.401 Y68.244 E.03771
G1 X67.536 Y67.849 E.03767
G1 X68.713 Y67.604 E.0377
G1 X69.932 Y67.514 E.03831
G1 X180.042 Y67.514 E3.45243
G1 X180.817 Y67.552 E.02433
G1 X181.878 Y67.706 E.03363
G1 X182.595 Y67.887 E.02317
G1 X183.514 Y68.208 E.03052
G1 X184.273 Y68.563 E.02629
G1 X185.112 Y69.057 E.03051
G1 X185.773 Y69.542 E.02571
G1 X186.4 Y70.091 E.02613
G1 X187.047 Y70.781 E.02966
G1 X187.63 Y71.545 E.03012
G1 X188.083 Y72.283 E.02715
G1 X188.476 Y73.077 E.02779
G1 X188.96 Y74.504 E.04725
G1 X189.13 Y75.361 E.02739
G1 X189.219 Y76.193 E.02624
G1 X189.219 Y133.806 E1.80642
G1 X189.097 Y134.842 E.03269
G1 X188.861 Y135.851 E.0325
G1 X188.456 Y136.964 E.03713
G1 X187.901 Y138.033 E.03776
G1 X187.26 Y138.96 E.03535
G1 X186.494 Y139.818 E.03607
G1 X185.626 Y140.575 E.03608
G1 X184.672 Y141.217 E.03607
G1 X183.599 Y141.756 E.03766
G1 X182.464 Y142.151 E.03767
G1 X181.287 Y142.396 E.0377
G1 X180.068 Y142.486 E.03831
G1 X69.931 Y142.486 E3.45329
G1 X68.731 Y142.398 E.03771
M73 Q0 S106
G1 X67.573 Y142.161 E.03708
G1 X66.455 Y141.779 E.03705
G1 X65.374 Y141.244 E.03783
G1 X64.389 Y140.587 E.0371
G1 X63.498 Y139.81 E.03707
G1 X62.698 Y138.906 E.03784
G1 X62.036 Y137.927 E.03708
G1 X61.496 Y136.854 E.03764
G1 X61.099 Y135.717 E.03777
G1 X60.854 Y134.536 E.03781
G1 X60.764 Y133.318 E.03829
G1 X60.769 Y76.533 E1.78047
G1 X60.865 Y75.386 E.03606
M73 P1 R106
M73 Q1 S106
G1 X61.121 Y74.208 E.03782
G1 X61.517 Y73.096 E.03699
G1 X62.04 Y72.065 E.03626
G1 X62.688 Y71.108 E.03624
G1 X63.395 Y70.303 E.03357
M204 S1000
G1 X63.678 Y70.552 F10800
M204 S800
G1 F1200
G1 X64.59 Y69.735 E.03842
G1 X65.527 Y69.103 E.03542
G1 X66.559 Y68.587 E.03618
G1 X67.647 Y68.209 E.03613
G1 X68.777 Y67.976 E.03617
G1 X69.938 Y67.891 E.03651
G1 X180.037 Y67.891 E3.45208
G1 X180.772 Y67.926 E.02307
G1 X181.796 Y68.074 E.03243
G1 X182.478 Y68.246 E.02207
G1 X183.38 Y68.561 E.02995
G1 X184.089 Y68.893 E.02455
G1 X184.912 Y69.377 E.02994
G1 X185.531 Y69.831 E.02405
G1 X186.144 Y70.369 E.02558
G1 X186.765 Y71.032 E.02849
G1 X187.324 Y71.766 E.02892
G1 X187.757 Y72.472 E.02599
G1 X188.132 Y73.233 E.02659
G1 X188.593 Y74.59 E.04493
G1 X188.759 Y75.426 E.02673
G1 X188.843 Y76.223 E.02512
G1 X188.844 Y133.773 E1.80445
G1 X188.724 Y134.787 E.03201
G1 X188.502 Y135.733 E.03047
G1 X188.116 Y136.802 E.03563
G1 X187.584 Y137.828 E.03624
G1 X186.956 Y138.735 E.0346
G1 X186.221 Y139.558 E.03459
G1 X185.388 Y140.282 E.03461
G1 X184.472 Y140.897 E.03458
G1 X183.441 Y141.413 E.03615
G1 X182.353 Y141.791 E.03613
G1 X181.223 Y142.024 E.03617
G1 X180.062 Y142.109 E.03651
G1 X69.937 Y142.109 E3.45287
G1 X68.795 Y142.027 E.03592
M73 P1 R105
G1 X67.66 Y141.794 E.0363
G1 X66.589 Y141.426 E.03552
G1 X65.573 Y140.923 E.03555
G1 X64.609 Y140.28 E.03633
G1 X63.756 Y139.534 E.03554
G1 X62.989 Y138.666 E.03631
G1 X62.355 Y137.726 E.03555
G1 X61.839 Y136.696 E.03611
G1 X61.46 Y135.605 E.03623
G1 X61.226 Y134.472 E.03627
G1 X61.141 Y133.311 E.03649
G1 X61.145 Y76.556 E1.77954
G1 X61.236 Y75.454 E.03467
G1 X61.48 Y74.322 E.03629
G1 X61.859 Y73.256 E.03549
G1 X62.359 Y72.266 E.03476
G1 X62.993 Y71.329 E.03548
G1 X63.638 Y70.597 E.03056
M204 S1000
G1 X63.92 Y70.847 F10800
M204 S800
G1 F1200
G1 X64.015 Y70.74 E.00449
G1 X64.829 Y70.027 E.03394
G1 X65.727 Y69.423 E.03391
G1 X66.716 Y68.93 E.03465
G1 X67.759 Y68.57 E.03459
G1 X68.841 Y68.348 E.03463
G1 X69.945 Y68.268 E.03472
G1 X180.033 Y68.268 E3.45173
G1 X180.728 Y68.301 E.0218
G1 X181.714 Y68.442 E.03123
G1 X182.362 Y68.605 E.02097
G1 X183.247 Y68.914 E.02938
G1 X183.906 Y69.222 E.02281
G1 X184.713 Y69.697 E.02936
G1 X185.288 Y70.12 E.02239
G1 X185.888 Y70.646 E.02503
G1 X186.483 Y71.282 E.0273
G1 X187.018 Y71.986 E.02772
G1 X187.422 Y72.647 E.02429
G1 X187.788 Y73.389 E.02594
G1 X188.225 Y74.676 E.04261
G1 X188.387 Y75.491 E.02607
G1 X188.467 Y76.252 E.024
G1 X188.468 Y133.74 E1.80248
G1 X188.35 Y134.732 E.03134
G1 X188.144 Y135.616 E.02846
G1 X187.775 Y136.64 E.03413
G1 X187.267 Y137.624 E.03472
G1 X186.667 Y138.493 E.0331
G1 X185.948 Y139.297 E.03384
G1 X185.15 Y139.99 E.03312
G1 X184.273 Y140.577 E.0331
G1 X183.284 Y141.07 E.03463
G1 X182.241 Y141.43 E.03459
G1 X181.159 Y141.652 E.03463
G1 X180.055 Y141.732 E.03472
G1 X69.944 Y141.732 E3.45245
G1 X68.858 Y141.655 E.03414
G1 X67.771 Y141.434 E.03478
G1 X66.745 Y141.083 E.03399
G1 X65.751 Y140.591 E.03477
G1 X64.829 Y139.974 E.03479
G1 X64.014 Y139.259 E.03401
G1 X63.281 Y138.426 E.03478
G1 X62.675 Y137.526 E.03402
G1 X62.182 Y136.539 E.03458
G1 X61.82 Y135.494 E.03469
G1 X61.598 Y134.409 E.03473
G1 X61.518 Y133.305 E.0347
G1 X61.522 Y76.578 E1.77861
G1 X61.608 Y75.52 E.03328
G1 X61.84 Y74.436 E.03476
G1 X62.201 Y73.415 E.03397
G1 X62.691 Y72.447 E.034
G1 X63.299 Y71.551 E.03397
G1 X63.881 Y70.892 E.02756
M204 S1000
G1 X64.163 Y71.142 F10800
M204 S800
G1 F1200
G1 X64.289 Y70.999 E.00598
G1 X65.068 Y70.319 E.03243
G1 X65.926 Y69.743 E.0324
G1 X66.872 Y69.273 E.03312
G1 X67.869 Y68.93 E.03306
G1 X68.904 Y68.72 E.03309
G1 X69.952 Y68.645 E.03295
G1 X180.029 Y68.645 E3.45139
G1 X180.684 Y68.675 E.02055
G1 X181.632 Y68.81 E.03003
G1 X182.246 Y68.964 E.01985
G1 X183.114 Y69.267 E.02881
G1 X183.722 Y69.552 E.02107
G1 X184.513 Y70.017 E.02878
G1 X185.046 Y70.409 E.02072
G1 X185.633 Y70.923 E.02448
G1 X186.189 Y71.518 E.02552
G1 X186.712 Y72.207 E.02712
G1 X187.088 Y72.821 E.0226
G1 X187.445 Y73.544 E.02528
G1 X187.858 Y74.761 E.04029
G1 X188.016 Y75.556 E.0254
G1 X188.091 Y76.281 E.02287
G1 X188.092 Y133.707 E1.80053
G1 X187.977 Y134.678 E.03066
G1 X187.785 Y135.499 E.02645
G1 X187.434 Y136.479 E.03264
G1 X186.949 Y137.42 E.0332
G1 X186.378 Y138.251 E.03161
G1 X185.691 Y139.02 E.03234
G1 X184.912 Y139.697 E.03237
G1 X184.073 Y140.257 E.03161
G1 X183.128 Y140.727 E.03312
G1 X182.131 Y141.07 E.03306
G1 X181.096 Y141.28 E.03309
G1 X180.048 Y141.355 E.03295
G1 X69.951 Y141.355 E3.45203
G1 X68.897 Y141.279 E.03312
M73 Q1 S105
G1 X67.859 Y141.067 E.03324
G1 X66.88 Y140.73 E.03246
G1 X65.93 Y140.259 E.03324
G1 X65.05 Y139.667 E.03325
G1 X64.272 Y138.984 E.03248
G1 X63.572 Y138.187 E.03325
G1 X62.995 Y137.326 E.0325
G1 X62.525 Y136.382 E.03305
G1 X62.181 Y135.383 E.03315
G1 X61.97 Y134.346 E.03319
G1 X61.895 Y133.298 E.03293
G1 X61.898 Y76.601 E1.7777
G1 X61.979 Y75.587 E.0319
G1 X62.2 Y74.55 E.03323
G1 X62.543 Y73.574 E.03244
G1 X63.021 Y72.628 E.03323
G1 X63.603 Y71.773 E.03244
G1 X64.123 Y71.187 E.02456
M204 S1000
G1 X64.405 Y71.436 F10800
M204 S800
G1 F1200
G1 X64.547 Y71.275 E.00672
G1 X65.307 Y70.611 E.03166
G1 X66.126 Y70.064 E.03087
G1 X67.029 Y69.616 E.0316
G1 X67.957 Y69.297 E.03078
G1 X68.943 Y69.095 E.03156
G1 X69.959 Y69.022 E.03192
G1 X180.025 Y69.022 E3.45104
G1 X180.64 Y69.05 E.01931
M73 P2 R105
M73 Q2 S105
G1 X181.55 Y69.179 E.02884
G1 X182.13 Y69.323 E.01873
G1 X182.98 Y69.619 E.02823
G1 X183.538 Y69.881 E.01933
G1 X184.313 Y70.337 E.02821
G1 X184.803 Y70.697 E.01906
G1 X185.377 Y71.201 E.02393
G1 X185.894 Y71.753 E.02373
G1 X186.405 Y72.427 E.02652
G1 X186.754 Y72.996 E.02091
G1 X187.101 Y73.7 E.02462
G1 X187.49 Y74.847 E.03798
G1 X187.644 Y75.621 E.02473
G1 X187.715 Y76.31 E.02173
G1 X187.716 Y133.673 E1.79858
G1 X187.604 Y134.623 E.02998
G1 X187.427 Y135.383 E.02446
G1 X187.093 Y136.318 E.03115
G1 X186.632 Y137.217 E.03167
G1 X186.074 Y138.027 E.03084
G1 X185.418 Y138.76 E.03083
G1 X184.674 Y139.404 E.03087
G1 X183.875 Y139.936 E.03012
G1 X182.971 Y140.384 E.03161
G1 X182.043 Y140.703 E.03078
G1 X181.057 Y140.905 E.03156
G1 X180.041 Y140.978 E.03192
G1 X69.957 Y140.978 E3.45161
G1 X68.96 Y140.907 E.03135
G1 X67.969 Y140.706 E.03171
G1 X67.036 Y140.386 E.03093
G1 X66.129 Y139.938 E.0317
G1 X65.289 Y139.376 E.03169
G1 X64.53 Y138.709 E.03169
G1 X63.864 Y137.948 E.0317
G1 X63.315 Y137.127 E.03097
G1 X62.868 Y136.226 E.03153
G1 X62.542 Y135.272 E.03161
G1 X62.342 Y134.283 E.03165
G1 X62.272 Y133.292 E.03117
G1 X62.275 Y76.623 E1.77681
G1 X62.351 Y75.652 E.03052
M73 P2 R104
G1 X62.559 Y74.663 E.0317
G1 X62.886 Y73.733 E.03091
G1 X63.341 Y72.83 E.0317
G1 X63.894 Y72.013 E.03093
G1 X64.365 Y71.481 E.02229
M204 S1000
G1 X64.647 Y71.73 F10800
M204 S800
G1 F1200
G1 X64.82 Y71.534 E.00821
G1 X65.545 Y70.903 E.03013
G1 X66.324 Y70.385 E.02934
G1 X67.184 Y69.96 E.03008
G1 X68.067 Y69.658 E.02926
G1 X69.006 Y69.467 E.03003
G1 X69.965 Y69.399 E.03015
G1 X180.02 Y69.399 E3.45071
G1 X180.596 Y69.425 E.01808
G1 X181.47 Y69.547 E.02765
G1 X182.014 Y69.682 E.01759
G1 X182.847 Y69.972 E.02764
G1 X183.355 Y70.21 E.01759
G1 X184.114 Y70.658 E.02763
G1 X184.561 Y70.986 E.01739
G1 X185.121 Y71.478 E.02339
G1 X185.6 Y71.989 E.02195
G1 X186.099 Y72.648 E.02592
G1 X186.419 Y73.17 E.01921
G1 X186.757 Y73.856 E.02397
G1 X187.123 Y74.933 E.03566
G1 X187.273 Y75.685 E.02406
G1 X187.339 Y76.339 E.02059
G1 X187.341 Y133.64 E1.79664
G1 X187.231 Y134.568 E.0293
G1 X187.068 Y135.266 E.02249
G1 X186.751 Y136.158 E.02966
G1 X186.314 Y137.014 E.03014
G1 X185.785 Y137.785 E.02933
G1 X185.162 Y138.483 E.02932
G1 X184.455 Y139.097 E.02936
G1 X183.676 Y139.615 E.02935
G1 X182.816 Y140.04 E.03008
G1 X181.933 Y140.342 E.02926
G1 X180.994 Y140.533 E.03003
G1 X180.035 Y140.601 E.03015
G1 X69.964 Y140.601 E3.4512
G1 X69.022 Y140.535 E.02959
G1 X68.079 Y140.345 E.03017
G1 X67.17 Y140.034 E.03015
G1 X66.308 Y139.606 E.03015
G1 X65.51 Y139.07 E.03015
G1 X64.789 Y138.434 E.03015
G1 X64.157 Y137.709 E.03016
G1 X63.636 Y136.928 E.02945
G1 X63.221 Y136.092 E.02926
G1 X62.909 Y135.185 E.03007
G1 X62.717 Y134.244 E.03011
G1 X62.649 Y133.285 E.03015
G1 X62.651 Y76.644 E1.77593
G1 X62.722 Y75.717 E.02915
G1 X62.92 Y74.775 E.03017
G1 X63.228 Y73.891 E.02938
G1 X63.66 Y73.031 E.03015
G1 X64.199 Y72.235 E.03015
G1 X64.607 Y71.775 E.01927
M204 S1000
G1 X64.888 Y72.025 F10800
M204 S800
G1 F1200
G1 X65.094 Y71.794 E.0097
G1 X65.783 Y71.196 E.02861
G1 X66.522 Y70.706 E.02782
G1 X67.34 Y70.304 E.02856
G1 X68.177 Y70.019 E.02774
G1 X69.068 Y69.839 E.02851
G1 X69.972 Y69.776 E.02839
G1 X180.016 Y69.776 E3.45038
G1 X180.554 Y69.799 E.01685
G1 X181.389 Y69.916 E.02646
G1 X181.899 Y70.041 E.01646
G1 X182.696 Y70.318 E.02646
G1 X183.171 Y70.54 E.01646
G1 X183.899 Y70.967 E.02645
G1 X184.318 Y71.275 E.01632
G1 X184.866 Y71.755 E.02284
G1 X185.305 Y72.225 E.02016
G1 X185.793 Y72.868 E.02531
G1 X186.085 Y73.345 E.01752
G1 X186.414 Y74.011 E.02331
G1 X186.755 Y75.018 E.03334
G1 X186.901 Y75.75 E.02338
G1 X186.963 Y76.367 E.01944
G1 X186.963 Y133.629 E1.79541
G1 X186.857 Y134.513 E.02792
G1 X186.709 Y135.151 E.02054
G1 X186.409 Y135.998 E.02818
G1 X185.996 Y136.811 E.02861
G1 X185.495 Y137.544 E.02782
G1 X184.906 Y138.206 E.0278
G1 X184.217 Y138.804 E.02858
G1 X183.478 Y139.294 E.02782
G1 X182.66 Y139.696 E.02856
G1 X181.823 Y139.981 E.02774
G1 X180.932 Y140.161 E.02851
G1 X180.028 Y140.224 E.02839
G1 X69.971 Y140.224 E3.45079
G1 X69.061 Y140.16 E.02858
G1 X68.167 Y139.978 E.02862
G1 X67.304 Y139.681 E.0286
G1 X66.488 Y139.274 E.0286
G1 X65.732 Y138.765 E.0286
G1 X65.048 Y138.16 E.0286
