; generated by PrusaSlicer 2.5.0-alpha3+win64 on 2022-07-31 at 19:00:00 UTC


;
;
; 

; external perimeters extrusion width = 0.45mm
; perimeters extrusion width = 0.45mm
; infill extrusion width = 0.45mm
; solid infill extrusion width = 0.45mm
; top infill extrusion width = 0.40mm
; first layer extrusion width = 0.42mm

M73 P0 R36
M73 Q0 S36
M201 X1000 Y1000 Z200 E5000 ; sets maximum accelerations, mm/sec^2
M203 X200 Y200 Z12 E120 ; sets maximum feedrates, mm / sec
M204 P1250 R1250 T1250 ; sets acceleration (P, T) and retract acceleration (R), mm/sec^2
M205 X8.00 Y8.00 Z0.40 E4.50 ; sets the jerk limits, mm/sec
M205 S0 T0 ; sets the minimum extruding and travel feed rate, mm/sec
M107
;TYPE:Custom
M862.3 P "MK3S" ; printer model check
M862.1 P0.4 ; nozzle diameter check
M115 U3.11.0 ; tell printer latest fw version
G90 ; use absolute coordinates
M83 ; extruder relative mode
M104 S230 ; set extruder temp
M140 S85 ; set bed temp
M190 S85 ; wait for bed temp
M109 S230 ; wait for extruder temp
G28 W ; home all without mesh bed level
G80 ; mesh bed leveling
G1 Z0.2 F720
G1 Y-3 F1000 ; go outside print area
G92 E0
G1 X60 E9 F1000 ; intro line
G1 X100 E12.5 F1000 ; intro line
G92 E0
M221 S95

; Don't change E values below. Excessive value can damage the printer.

M907 E538 ; set extruder motor current
G21 ; set units to millimeters
G90 ; use absolute coordinates
M83 ; use relative distances for extrusion
M900 K0.08 ; Filament gcode LA 1.5
M900 K45 ; Filament gcode LA 1.0
M107
;LAYER_CHANGE
;Z:0.2
;HEIGHT:0.2
;BEFORE_LAYER_CHANGE
G92 E0.0
;0.2


G1 E-1 F2100
G1 Z.2 F720
;AFTER_LAYER_CHANGE
;0.2
G1 Z.4
G1 X70.36 Y92.017 F10800
G1 Z.2 F720
G1 E1 F2100
M204 S800
;TYPE:Skirt/Brim
;WIDTH:0.42
G1 F1200
G1 X71.3 Y91.823 E.03008
G1 X148.7 Y91.823 E2.42682
G1 X150.007 Y92.215 E.04278
G1 X150.883 Y93.26 E.04278
G1 X151.077 Y94.2 E.03008
G1 X151.077 Y125.8 E.9908
G1 X150.685 Y127.107 E.04278
G1 X149.64 Y127.983 E.04278
G1 X148.7 Y128.177 E.03008
G1 X71.3 Y128.177 E2.42682
G1 X69.993 Y127.785 E.04278
G1 X69.117 Y126.74 E.04278
G1 X68.923 Y125.8 E.03008
G1 X68.923 Y94.2 E.9908
G1 X69.315 Y92.893 E.04278
G1 X70.314 Y92.055 E.0409
M204 S1000
; printing object idler-cover.stl id:0 copy 0
;WIPE_START
G1 F8640
G1 X71.3 Y91.823 E-.23384
G1 X74.402 Y91.823 E-.71616
;WIPE_END
G1 E-.05 F2100
G1 Z.4 F720
G1 X147.913 Y125.013 F10800
G1 Z.2 F720
G1 E1 F2100
M204 S800
;TYPE:Perimeter
;WIDTH:0.419999
G1 F1200
G1 X72.087 Y125.013 E2.37746
G1 X72.087 Y94.987 E.94144
M73 P1 R35
M73 Q1 S36
G1 X147.913 Y94.987 E2.37746
G1 X147.913 Y124.953 E.93956
M204 S1000
G1 X148.29 Y125.39 F10800
M204 S800
;TYPE:External perimeter
G1 F1200
G1 X71.71 Y125.39 E2.40111
G1 X71.71 Y94.61 E.96508
G1 X148.29 Y94.61 E2.40111
G1 X148.29 Y125.33 E.9632
M204 S1000
G1 X147.893 Y125.339 F10800
;WIPE_START
G1 F8640
G1 X144.176 Y125.333 E-.95
;WIPE_END
G1 E-.05 F2100
G1 Z.4 F720
G1 X142.813 Y99.217 F10800
G1 Z.2 F720
G1 E1 F2100
M204 S800
;TYPE:Perimeter
G1 F1200
G1 X142.896 Y99.172 E.00296
G1 X143.355 Y99.024 E.01511
G1 X143.833 Y98.965 E.01511
G1 X144.314 Y98.999 E.01511
G1 X144.831 Y99.145 E.01684
G1 X145.214 Y99.332 E.01336
G1 X145.601 Y99.62 E.01511
G1 X145.928 Y99.979 E.01523
G1 X146.186 Y100.405 E.01562
G1 X146.352 Y100.863 E.01529
G1 X146.432 Y101.419 E.01761
G1 X146.399 Y101.927 E.01595
G1 X146.233 Y102.492 E.01847
G1 X146.003 Y102.916 E.01511
G1 X145.697 Y103.288 E.01511
G1 X145.327 Y103.596 E.01511
G1 X144.904 Y103.828 E.01511
G1 X144.445 Y103.976 E.01511
G1 X143.967 Y104.035 E.01511
G1 X143.486 Y104.001 E.01511
G1 X143.103 Y103.908 E.01236
G1 X142.643 Y103.704 E.01576
G1 X142.23 Y103.41 E.0159
G1 X141.886 Y103.042 E.01579
M73 Q1 S35
G1 X141.622 Y102.614 E.01579
G1 X141.452 Y102.159 E.01523
G1 X141.371 Y101.667 E.01562
G1 X141.387 Y101.18 E.01529
G1 X141.52 Y100.634 E.01761
G1 X141.738 Y100.175 E.01595
G1 X142.103 Y99.712 E.01847
G1 X142.473 Y99.404 E.01511
G1 X142.761 Y99.246 E.01027
M204 S1000
G1 X142.993 Y99.543 F10800
M204 S800
;TYPE:External perimeter
G1 F1200
G1 X143.408 Y99.397 E.01379
G1 X143.815 Y99.342 E.01287
G1 X144.225 Y99.365 E.01287
G1 X144.674 Y99.488 E.0146
G1 X144.995 Y99.639 E.01112
G1 X145.328 Y99.88 E.01287
G1 X145.609 Y100.18 E.01291
G1 X145.836 Y100.544 E.01343
G1 X145.978 Y100.917 E.01253
G1 X146.058 Y101.473 E.01761
G1 X146.017 Y101.926 E.01427
G1 X145.898 Y102.319 E.01287
G1 X145.707 Y102.683 E.01287
G1 X145.451 Y103.003 E.01287
G1 X145.138 Y103.269 E.01287
G1 X144.781 Y103.472 E.01287
G1 X144.392 Y103.603 E.01287
G1 X143.985 Y103.658 E.01287
G1 X143.575 Y103.635 E.01287
G1 X143.204 Y103.545 E.01196
G1 X142.805 Y103.361 E.01379
G1 X142.472 Y103.12 E.01287
G1 X142.191 Y102.821 E.01287
G1 X141.972 Y102.474 E.01287
G1 X141.823 Y102.09 E.01291
G1 X141.748 Y101.668 E.01343
G1 X141.754 Y101.269 E.01253
G1 X141.886 Y100.723 E.01761
G1 X142.093 Y100.317 E.01427
G1 X142.349 Y99.997 E.01287
G1 X142.662 Y99.731 E.01287
G1 X142.941 Y99.572 E.01006
M204 S1000
G1 X143.031 Y99.145 F10800
;WIPE_START
G1 F8640
G1 X143.408 Y99.397 E-.1152
G1 X143.815 Y99.342 E-.0948
G1 X144.225 Y99.365 E-.0948
G1 X144.674 Y99.488 E-.10752
G1 X144.995 Y99.639 E-.08188
G1 X145.328 Y99.88 E-.0948
G1 X145.609 Y100.18 E-.09511
G1 X145.836 Y100.544 E-.09891
G1 X145.978 Y100.917 E-.09225
G1 X146.024 Y101.237 E-.07473
;WIPE_END
G1 E-.05 F2100
G1 Z.4 F720
G1 X146.263 Y119.391 F10800
G1 Z.2 F720
M73 P2 R35
M73 Q2 S35
G1 E1 F2100
M204 S800
;TYPE:Perimeter
G1 F1200
G1 X146.233 Y119.492 E.0033
G1 X146.003 Y119.916 E.01511
G1 X145.697 Y120.288 E.01511
G1 X145.327 Y120.596 E.01511
G1 X144.904 Y120.828 E.01511
G1 X144.445 Y120.976 E.01511
G1 X144.074 Y121.029 E.01175
G1 X143.486 Y121.001 E.01847
G1 X143.02 Y120.878 E.01511
G1 X142.586 Y120.668 E.01511
G1 X142.199 Y120.38 E.01511
G1 X141.874 Y120.025 E.01511
G1 X141.622 Y119.614 E.01511
G1 X141.452 Y119.159 E.01523
G1 X141.371 Y118.667 E.01562
G1 X141.387 Y118.18 E.01529
G1 X141.52 Y117.634 E.01761
G1 X141.738 Y117.175 E.01595
G1 X142.042 Y116.773 E.01577
G1 X142.418 Y116.44 E.01577
G1 X142.859 Y116.186 E.01596
G1 X143.355 Y116.024 E.01634
G1 X143.833 Y115.965 E.01511
G1 X144.314 Y115.999 E.01511
G1 X144.78 Y116.122 E.01511
G1 X145.214 Y116.332 E.01511
G1 X145.601 Y116.62 E.01511
G1 X145.926 Y116.975 E.01511
G1 X146.178 Y117.386 E.01511
G1 X146.352 Y117.863 E.01592
G1 X146.432 Y118.419 E.01761
G1 X146.399 Y118.927 E.01595
G1 X146.28 Y119.334 E.01329
M204 S1000
G1 X145.908 Y119.286 F10800
M204 S800
;TYPE:External perimeter
G1 F1200
G1 X145.707 Y119.683 E.01396
G1 X145.451 Y120.003 E.01287
G1 X145.138 Y120.269 E.01287
G1 X144.781 Y120.472 E.01287
G1 X144.392 Y120.603 E.01287
G1 X144.021 Y120.656 E.01175
G1 X143.575 Y120.635 E.01399
G1 X143.177 Y120.535 E.01287
G1 X142.805 Y120.361 E.01287
G1 X142.472 Y120.12 E.01287
G1 X142.191 Y119.821 E.01287
G1 X141.972 Y119.474 E.01287
G1 X141.823 Y119.09 E.01291
G1 X141.748 Y118.668 E.01343
G1 X141.754 Y118.269 E.01253
G1 X141.886 Y117.723 E.01761
G1 X142.093 Y117.317 E.01427
G1 X142.349 Y116.997 E.01287
G1 X142.662 Y116.731 E.01287
G1 X143.019 Y116.528 E.01287
G1 X143.408 Y116.397 E.01287
G1 X143.815 Y116.342 E.01287
G1 X144.225 Y116.365 E.01287
G1 X144.623 Y116.465 E.01287
G1 X144.995 Y116.639 E.01287
G1 X145.328 Y116.88 E.01287
G1 X145.609 Y117.179 E.01287
G1 X145.828 Y117.526 E.01287
G1 X145.978 Y117.917 E.01313
G1 X146.058 Y118.473 E.01761
G1 X146.017 Y118.926 E.01427
G1 X145.926 Y119.228 E.00989
M204 S1000
G1 X146.158 Y119.598 F10800
;WIPE_START
G1 F8640
G1 X145.707 Y119.683 E-.11644
G1 X145.451 Y120.003 E-.0948
G1 X145.138 Y120.269 E-.0948
G1 X144.781 Y120.472 E-.0948
G1 X144.392 Y120.603 E-.0948
G1 X144.021 Y120.656 E-.08656
G1 X143.575 Y120.635 E-.10304
G1 X143.177 Y120.535 E-.0948
G1 X142.805 Y120.361 E-.0948
G1 X142.541 Y120.17 E-.07518
;WIPE_END
G1 E-.05 F2100
G1 Z.4 F720
G1 X76.656 Y116.036 F10800
G1 Z.2 F720
G1 E1 F2100
M204 S800
;TYPE:Perimeter
G1 F1200
G1 X76.98 Y116.122 E.01052
G1 X77.414 Y116.332 E.01511
G1 X77.801 Y116.62 E.01511
G1 X78.126 Y116.975 E.01511
G1 X78.378 Y117.386 E.01511
G1 X78.548 Y117.841 E.01523
G1 X78.629 Y118.333 E.01562
G1 X78.613 Y118.82 E.01529
G1 X78.48 Y119.366 E.01761
G1 X78.262 Y119.825 E.01595
G1 X77.897 Y120.288 E.01847
G1 X77.527 Y120.596 E.01511
G1 X77.104 Y120.828 E.01511
G1 X76.645 Y120.976 E.01511
G1 X76.167 Y121.035 E.01511
G1 X75.686 Y121.001 E.01511
G1 X75.169 Y120.855 E.01684
G1 X74.786 Y120.668 E.01336
G1 X74.399 Y120.38 E.01511
G1 X74.072 Y120.021 E.01523
G1 X73.814 Y119.595 E.01562
G1 X73.648 Y119.137 E.01529
G1 X73.568 Y118.581 E.01761
G1 X73.601 Y118.073 E.01595
G1 X73.767 Y117.508 E.01847
G1 X73.997 Y117.084 E.01511
G1 X74.303 Y116.712 E.01511
G1 X74.673 Y116.404 E.01511
G1 X74.998 Y116.217 E.01175
G1 X75.555 Y116.024 E.01847
G1 X76.033 Y115.965 E.01511
G1 X76.514 Y115.999 E.01511
G1 X76.598 Y116.021 E.00271
M204 S1000
G1 X76.579 Y116.404 F10800
M204 S800
;TYPE:External perimeter
G1 F1200
G1 X76.823 Y116.465 E.00791
G1 X77.195 Y116.639 E.01287
G1 X77.528 Y116.88 E.01287
G1 X77.809 Y117.179 E.01287
G1 X78.028 Y117.526 E.01287
G1 X78.177 Y117.91 E.01291
G1 X78.252 Y118.332 E.01343
G1 X78.246 Y118.731 E.01253
G1 X78.114 Y119.277 E.01761
G1 X77.907 Y119.683 E.01427
G1 X77.651 Y120.003 E.01287
G1 X77.338 Y120.269 E.01287
G1 X76.981 Y120.472 E.01287
G1 X76.592 Y120.603 E.01287
G1 X76.185 Y120.658 E.01287
G1 X75.775 Y120.635 E.01287
G1 X75.326 Y120.512 E.0146
G1 X75.005 Y120.361 E.01112
G1 X74.672 Y120.12 E.01287
G1 X74.391 Y119.82 E.01291
G1 X74.164 Y119.456 E.01343
G1 X74.022 Y119.083 E.01253
G1 X73.942 Y118.527 E.01761
G1 X73.983 Y118.074 E.01427
G1 X74.102 Y117.681 E.01287
G1 X74.293 Y117.317 E.01287
G1 X74.549 Y116.997 E.01287
G1 X74.862 Y116.731 E.01287
G1 X75.187 Y116.543 E.01175
G1 X75.608 Y116.397 E.01399
G1 X76.015 Y116.342 E.01287
G1 X76.425 Y116.365 E.01287
G1 X76.521 Y116.389 E.00309
M204 S1000
G1 X76.746 Y116.215 F10800
;WIPE_START
G1 F8640
G1 X76.823 Y116.465 E-.07207
G1 X77.195 Y116.639 E-.0948
G1 X77.528 Y116.88 E-.0948
G1 X77.809 Y117.179 E-.0948
G1 X78.028 Y117.526 E-.0948
G1 X78.177 Y117.91 E-.09511
G1 X78.252 Y118.332 E-.09891
G1 X78.246 Y118.731 E-.09225
G1 X78.114 Y119.277 E-.1297
G1 X77.951 Y119.597 E-.08277
;WIPE_END
G1 E-.05 F2100
G1 Z.4 F720
G1 X78.446 Y102.438 F10800
G1 Z.2 F720
G1 E1 F2100
M204 S800
;TYPE:Perimeter
G1 F1200
G1 X78.262 Y102.825 E.01343
G1 X77.958 Y103.227 E.01577
G1 X77.582 Y103.56 E.01577
G1 X77.141 Y103.814 E.01596
G1 X76.645 Y103.976 E.01634
G1 X76.274 Y104.029 E.01175
G1 X75.686 Y104.001 E.01847
G1 X75.22 Y103.878 E.01511
G1 X74.786 Y103.668 E.01511
G1 X74.399 Y103.38 E.01511
G1 X74.074 Y103.025 E.01511
G1 X73.822 Y102.614 E.01511
G1 X73.648 Y102.137 E.01592
G1 X73.568 Y101.581 E.01761
G1 X73.601 Y101.073 E.01595
G1 X73.767 Y100.508 E.01847
G1 X73.997 Y100.084 E.01511
G1 X74.303 Y99.712 E.01511
G1 X74.673 Y99.404 E.01511
G1 X75.096 Y99.172 E.01511
G1 X75.555 Y99.024 E.01511
G1 X76.033 Y98.965 E.01511
G1 X76.514 Y98.999 E.01511
G1 X76.98 Y99.122 E.01511
G1 X77.414 Y99.332 E.01511
G1 X77.801 Y99.62 E.01511
G1 X78.126 Y99.975 E.01511
G1 X78.378 Y100.386 E.01511
G1 X78.548 Y100.841 E.01523
G1 X78.629 Y101.333 E.01562
G1 X78.613 Y101.82 E.01529
G1 X78.472 Y102.384 E.01823
M204 S1000
G1 X78.122 Y102.244 F10800
M204 S800
;TYPE:External perimeter
G1 F1200
G1 X77.907 Y102.683 E.01532
G1 X77.651 Y103.003 E.01287
G1 X77.338 Y103.269 E.01287
G1 X76.981 Y103.472 E.01287
G1 X76.592 Y103.603 E.01287
G1 X76.221 Y103.656 E.01175
G1 X75.775 Y103.635 E.01399
G1 X75.377 Y103.535 E.01287
G1 X75.005 Y103.361 E.01287
G1 X74.672 Y103.12 E.01287
G1 X74.391 Y102.821 E.01287
G1 X74.172 Y102.474 E.01287
G1 X74.022 Y102.083 E.01313
G1 X73.942 Y101.527 E.01761
G1 X73.983 Y101.074 E.01427
G1 X74.102 Y100.681 E.01287
G1 X74.293 Y100.317 E.01287
G1 X74.549 Y99.997 E.01287
G1 X74.862 Y99.731 E.01287
G1 X75.219 Y99.528 E.01287
G1 X75.608 Y99.397 E.01287
G1 X76.015 Y99.342 E.01287
G1 X76.425 Y99.365 E.01287
G1 X76.823 Y99.465 E.01287
G1 X77.195 Y99.639 E.01287
G1 X77.528 Y99.88 E.01287
G1 X77.809 Y100.179 E.01287
G1 X78.028 Y100.526 E.01287
G1 X78.177 Y100.91 E.01291
G1 X78.252 Y101.332 E.01343
G1 X78.246 Y101.731 E.01253
G1 X78.136 Y102.185 E.01465
M204 S1000
G1 X78.378 Y102.551 F10800
;WIPE_START
G1 F8640
G1 X77.907 Y102.683 E-.12641
G1 X77.651 Y103.003 E-.0948
G1 X77.338 Y103.269 E-.0948
G1 X76.981 Y103.472 E-.0948
G1 X76.592 Y103.603 E-.0948
G1 X76.221 Y103.656 E-.08656
G1 X75.775 Y103.635 E-.10304
G1 X75.377 Y103.535 E-.0948
G1 X75.005 Y103.361 E-.0948
G1 X74.776 Y103.195 E-.0652
;WIPE_END
G1 E-.05 F2100
G1 Z.4 F720
G1 X147.8 Y95.866 F10800
G1 Z.2 F720
G1 E1 F2100
M204 S800
;TYPE:Solid infill
;WIDTH:0.421508
G1 F1200
G1 X147.204 Y95.27 E.02652
G1 X146.669 Y95.27 E.01685
G1 X147.63 Y96.231 E.04281
G1 X147.63 Y96.767 E.01685
G1 X146.133 Y95.27 E.06664
G1 X145.598 Y95.27 E.01685
G1 X147.63 Y97.302 E.09048
G1 X147.63 Y97.838 E.01685
G1 X145.062 Y95.27 E.11431
G1 X144.527 Y95.27 E.01685
G1 X147.63 Y98.373 E.13815
G1 X147.63 Y98.908 E.01685
G1 X143.992 Y95.27 E.16198
G1 X143.456 Y95.27 E.01685
G1 X147.63 Y99.444 E.18582
G1 X147.63 Y99.979 E.01685
G1 X142.921 Y95.27 E.20966
G1 X142.385 Y95.27 E.01685
G1 X147.63 Y100.515 E.23349
G1 X147.63 Y101.05 E.01685
G1 X141.85 Y95.27 E.25733
G1 X141.315 Y95.27 E.01685
G1 X144.921 Y98.877 E.16057
G1 X145.373 Y99.097 E.01582
G1 X145.801 Y99.42 E.01687
G1 X146.163 Y99.821 E.01704
G1 X146.446 Y100.293 E.01731
G1 X146.517 Y100.473 E.00608
G1 X147.63 Y101.585 E.04954
G1 X147.63 Y102.121 E.01685
G1 X146.682 Y101.172 E.04222
G1 X146.712 Y101.385 E.00675
G1 X146.702 Y101.728 E.0108
G1 X147.63 Y102.656 E.04134
G1 X147.63 Y103.192 E.01685
G1 X146.625 Y102.187 E.04474
G1 X146.543 Y102.479 E.00956
G1 X146.49 Y102.587 E.00379
G1 X147.63 Y103.727 E.05074
G1 X147.63 Y104.262 E.01685
G1 X146.316 Y102.948 E.0585
G1 X146.089 Y103.257 E.01206
G1 X147.63 Y104.798 E.06859
G1 X147.63 Y105.333 E.01685
G1 X145.832 Y103.535 E.08006
G1 X145.544 Y103.783 E.01195
G1 X147.63 Y105.869 E.09287
G1 X147.63 Y106.404 E.01685
G1 X145.212 Y103.986 E.10764
G1 X145.138 Y104.032 E.00275
G1 X144.836 Y104.145 E.01015
G1 X147.63 Y106.939 E.1244
G1 X147.63 Y107.475 E.01685
G1 X144.414 Y104.258 E.1432
G1 X144.108 Y104.31 E.00975
G1 X143.926 Y104.307 E.00572
G1 X147.63 Y108.01 E.16488
G1 X147.63 Y108.546 E.01685
G1 X143.107 Y104.023 E.20136
M204 S1000
;WIPE_START
G1 F8640
G1 X146.016 Y106.932 E-.95
;WIPE_END
G1 E-.05 F2100
G1 Z.4 F720
G1 X144.427 Y98.917 F10800
G1 Z.2 F720
G1 E1 F2100
M204 S800
G1 F1200
G1 X140.779 Y95.27 E.16238
G1 X140.244 Y95.27 E.01685
G1 X143.668 Y98.694 E.15242
G1 X143.21 Y98.772 E.0146
G1 X139.708 Y95.27 E.1559
G1 X139.173 Y95.27 E.01685
G1 X142.814 Y98.911 E.1621
G1 X142.662 Y98.968 E.00511
G1 X142.46 Y99.092 E.00747
G1 X138.638 Y95.27 E.17017
G1 X138.102 Y95.27 E.01685
G1 X142.14 Y99.308 E.17977
G1 X141.86 Y99.564 E.01193
G1 X137.567 Y95.27 E.19115
G1 X137.031 Y95.27 E.01685
G1 X141.623 Y99.861 E.2044
G1 X141.491 Y100.038 E.00695
G1 X141.414 Y100.188 E.00529
G1 X136.496 Y95.27 E.21893
G1 X135.961 Y95.27 E.01685
G1 X141.248 Y100.557 E.23539
G1 X141.146 Y100.991 E.01402
G1 X135.425 Y95.27 E.2547
G1 X134.89 Y95.27 E.01685
G1 X141.092 Y101.473 E.27614
G1 X141.091 Y101.749 E.00869
G1 X141.149 Y102.065 E.01012
G1 X134.354 Y95.27 E.3025
G1 X133.819 Y95.27 E.01685
G1 X147.63 Y109.081 E.61486
G1 X147.63 Y109.616 E.01685
G1 X133.284 Y95.27 E.6387
G1 X132.748 Y95.27 E.01685
G1 X147.63 Y110.152 E.66253
G1 X147.63 Y110.687 E.01685
G1 X132.213 Y95.27 E.68637
G1 X131.677 Y95.27 E.01685
M73 P3 R35
M73 Q3 S35
G1 X147.63 Y111.223 E.7102
G1 X147.63 Y111.758 E.01685
G1 X131.142 Y95.27 E.73404
G1 X130.606 Y95.27 E.01685
G1 X147.63 Y112.294 E.75788
G1 X147.63 Y112.829 E.01685
G1 X130.071 Y95.27 E.78171
G1 X129.536 Y95.27 E.01685
G1 X147.63 Y113.364 E.80555
G1 X147.63 Y113.9 E.01685
G1 X129 Y95.27 E.82938
G1 X128.465 Y95.27 E.01685
G1 X147.63 Y114.435 E.85322
G1 X147.63 Y114.971 E.01685
G1 X127.929 Y95.27 E.87705
G1 X127.394 Y95.27 E.01685
G1 X147.63 Y115.506 E.90089
G1 X147.63 Y116.041 E.01685
G1 X126.859 Y95.27 E.92473
G1 X126.323 Y95.27 E.01685
G1 X147.63 Y116.577 E.94856
G1 X147.63 Y117.112 E.01685
