; generated by PrusaSlicer 2.5.0-alpha3+win64 on 2022-07-31 at 19:01:22 UTC


;
;
; 

; external perimeters extrusion width = 0.45mm
; perimeters extrusion width = 0.45mm
; infill extrusion width = 0.45mm
; solid infill extrusion width = 0.45mm
; top infill extrusion width = 0.40mm
; support material extrusion width = 0.35mm
; first layer extrusion width = 0.42mm

M73 P0 R40
M73 Q0 S40
M201 X1000 Y1000 Z200 E5000 ; sets maximum accelerations, mm/sec^2
M203 X200 Y200 Z12 E120 ; sets maximum feedrates, mm / sec
M204 P1250 R1250 T1250 ; sets acceleration (P, T) and retract acceleration (R), mm/sec^2
M205 X8.00 Y8.00 Z0.40 E4.50 ; sets the jerk limits, mm/sec
M205 S0 T0 ; sets the minimum extruding and travel feed rate, mm/sec
M107
;TYPE:Custom
M862.3 P "MK3S" ; printer model check
M862.1 P0.4 ; nozzle diameter check
M115 U3.11.0 ; tell printer latest fw version
G90 ; use absolute coordinates
M83 ; extruder relative mode
M104 S230 ; set extruder temp
M140 S85 ; set bed temp
M190 S85 ; wait for bed temp
M109 S230 ; wait for extruder temp
G28 W ; home all without mesh bed level
G80 ; mesh bed leveling
G1 Z0.2 F720
G1 Y-3 F1000 ; go outside print area
G92 E0
G1 X60 E9 F1000 ; intro line
G1 X100 E12.5 F1000 ; intro line
G92 E0
M221 S95

; Don't change E values below. Excessive value can damage the printer.

M907 E538 ; set extruder motor current
G21 ; set units to millimeters
G90 ; use absolute coordinates
M83 ; use relative distances for extrusion
M900 K0.08 ; Filament gcode LA 1.5
M900 K45 ; Filament gcode LA 1.0
M107
;LAYER_CHANGE
;Z:0.2
;HEIGHT:0.2
;BEFORE_LAYER_CHANGE
G92 E0.0
;0.2


G1 E-1 F2100
G1 Z.2 F720
;AFTER_LAYER_CHANGE
;0.2
G1 Z.4
G1 X86.265 Y91.393 F10800
G1 Z.2 F720
G1 E1 F2100
M204 S800
;TYPE:Skirt/Brim
;WIDTH:0.42
G1 F1200
G1 X87.31 Y90.517 E.04278
G1 X88.25 Y90.323 E.03008
G1 X161.75 Y90.323 E2.30454
G1 X163.057 Y90.715 E.04278
G1 X163.933 Y91.76 E.04278
G1 X164.127 Y92.7 E.03008
G1 X164.127 Y117.3 E.77132
G1 X163.735 Y118.607 E.04278
G1 X162.69 Y119.483 E.04278
G1 X161.75 Y119.677 E.03008
G1 X88.25 Y119.677 E2.30454
G1 X86.943 Y119.285 E.04278
G1 X86.067 Y118.24 E.04278
G1 X85.873 Y117.3 E.03008
G1 X85.873 Y92.7 E.77132
G1 X86.247 Y91.45 E.0409
M204 S1000
; printing object motor-end-cover.stl id:0 copy 0
;WIPE_START
G1 F8640
G1 X87.31 Y90.517 E-.32671
G1 X88.25 Y90.323 E-.22155
G1 X89.99 Y90.323 E-.40174
;WIPE_END
G1 E-.05 F2100
G1 Z.4 F720
G1 X160.963 Y116.513 F10800
G1 Z.2 F720
G1 E1 F2100
M204 S800
;TYPE:Perimeter
;WIDTH:0.419999
G1 F1200
G1 X89.037 Y116.513 E2.25518
G1 X89.037 Y112.617 E.12216
G1 X89.179 Y112.916 E.01039
G1 X89.497 Y113.396 E.01805
G1 X90.058 Y113.979 E.02537
G1 X90.728 Y114.43 E.02533
G1 X91.447 Y114.719 E.0243
G1 X92.011 Y114.834 E.01805
G1 X92.82 Y114.85 E.02537
G1 X93.613 Y114.694 E.02533
G1 X94.326 Y114.391 E.0243
G1 X94.806 Y114.073 E.01805
G1 X95.39 Y113.512 E.02538
G1 X95.84 Y112.841 E.02533
G1 X96.133 Y112.103 E.02491
G1 X96.269 Y111.289 E.02586
G1 X96.227 Y110.481 E.02537
G1 X96.023 Y109.719 E.02472
G1 X95.771 Y109.201 E.01808
G1 X95.324 Y108.57 E.02423
G1 X94.922 Y108.181 E.01755
G1 X94.269 Y107.738 E.02476
G1 X93.756 Y107.513 E.01755
G1 X92.97 Y107.326 E.02534
G1 X92.175 Y107.309 E.02491
G1 X91.365 Y107.466 E.02586
G1 X90.64 Y107.777 E.02474
G1 X90.174 Y108.087 E.01755
G1 X89.59 Y108.648 E.02538
G1 X89.198 Y109.214 E.02159
G1 X89.037 Y109.568 E.01219
G1 X89.037 Y100.457 E.28567
G1 X89.191 Y100.773 E.01102
G1 X89.67 Y101.444 E.02586
G1 X90.271 Y101.986 E.02537
G1 X90.954 Y102.38 E.02472
G1 X91.447 Y102.559 E.01646
M73 Q1 S40
G1 X92.011 Y102.674 E.01805
G1 X92.82 Y102.69 E.02537
G1 X93.613 Y102.534 E.02533
G1 X94.326 Y102.231 E.0243
G1 X94.806 Y101.913 E.01805
G1 X95.39 Y101.352 E.02538
G1 X95.782 Y100.787 E.02158
G1 X95.886 Y100.57 E.00754
G1 X96.133 Y99.943 E.02113
G1 X96.269 Y99.129 E.02586
M73 P1 R40
G1 X96.227 Y98.321 E.02537
G1 X96.023 Y97.559 E.02472
G1 X95.789 Y97.067 E.01709
G1 X95.324 Y96.41 E.02524
G1 X94.922 Y96.021 E.01755
G1 X94.25 Y95.57 E.02538
G1 X93.498 Y95.272 E.02537
G1 X92.72 Y95.141 E.02472
G1 X92.175 Y95.149 E.01709
G1 X91.365 Y95.306 E.02586
G1 X90.623 Y95.628 E.02537
G1 X89.98 Y96.086 E.02474
G1 X89.591 Y96.488 E.01755
G1 X89.198 Y97.054 E.02161
G1 X89.037 Y97.408 E.01219
G1 X89.037 Y93.487 E.12293
G1 X160.963 Y93.487 E2.25518
G1 X160.963 Y97.383 E.12216
G1 X160.809 Y97.067 E.01102
G1 X160.33 Y96.396 E.02586
G1 X159.746 Y95.865 E.02474
G1 X159.27 Y95.57 E.01755
G1 X158.518 Y95.272 E.02538
G1 X157.74 Y95.141 E.02472
G1 X157.195 Y95.149 E.01709
G1 X156.385 Y95.306 E.02586
G1 X155.643 Y95.628 E.02537
G1 X155 Y96.086 E.02474
G1 X154.611 Y96.488 E.01755
G1 X154.16 Y97.16 E.02538
G1 X153.862 Y97.912 E.02537
G1 X153.731 Y98.711 E.02537
G1 X153.773 Y99.519 E.02537
G1 X153.977 Y100.281 E.02472
G1 X154.229 Y100.799 E.01808
G1 X154.676 Y101.43 E.02423
G1 X155.078 Y101.819 E.01755
G1 X155.753 Y102.272 E.02548
G1 X156.467 Y102.559 E.02414
G1 X157.026 Y102.674 E.01788
G1 X157.72 Y102.699 E.02178
G1 X158.143 Y102.635 E.0134
G1 X158.633 Y102.534 E.01571
G1 X159.346 Y102.231 E.02428
G1 X159.826 Y101.913 E.01805
G1 X160.41 Y101.352 E.02538
G1 X160.802 Y100.786 E.02159
G1 X160.963 Y100.432 E.01219
G1 X160.963 Y109.543 E.28567
G1 X160.809 Y109.227 E.01102
G1 X160.33 Y108.556 E.02586
G1 X159.746 Y108.025 E.02474
G1 X159.289 Y107.738 E.01693
G1 X158.776 Y107.513 E.01756
G1 X157.99 Y107.326 E.02534
G1 X157.195 Y107.309 E.02491
G1 X156.368 Y107.473 E.02643
G1 X155.66 Y107.777 E.02417
G1 X155.194 Y108.087 E.01755
G1 X154.61 Y108.648 E.02538
G1 X154.218 Y109.213 E.02158
G1 X154.114 Y109.43 E.00754
G1 X153.867 Y110.057 E.02113
G1 X153.731 Y110.871 E.02586
G1 X153.773 Y111.679 E.02537
G1 X153.977 Y112.441 E.02472
G1 X154.211 Y112.933 E.01709
G1 X154.676 Y113.59 E.02524
G1 X155.078 Y113.979 E.01755
G1 X155.749 Y114.43 E.02534
G1 X156.467 Y114.719 E.02428
G1 X157.031 Y114.834 E.01805
G1 X157.841 Y114.85 E.02538
G1 X158.633 Y114.694 E.02533
G1 X159.346 Y114.391 E.02428
G1 X159.826 Y114.073 E.01805
G1 X160.41 Y113.512 E.02538
G1 X160.802 Y112.946 E.02159
G1 X160.963 Y112.592 E.01219
G1 X160.963 Y116.453 E.12105
M204 S1000
G1 X161.34 Y116.89 F10800
M204 S800
;TYPE:External perimeter
G1 F1200
G1 X88.66 Y116.89 E2.27883
G1 X88.66 Y112.332 E.14292
;WIDTH:0.457937
M73 P1 R39
G1 X88.674 Y110.779 E.05361
;WIDTH:0.44869
G1 X88.66 Y110.09 E.02324
;WIDTH:0.419999
G1 X88.66 Y100.172 E.31097
;WIDTH:0.457937
G1 X88.674 Y98.619 E.05361
;WIDTH:0.44869
G1 X88.66 Y97.93 E.02324
;WIDTH:0.419999
G1 X88.66 Y93.11 E.15112
G1 X161.34 Y93.11 E2.27883
G1 X161.34 Y94.605 E.04689
G1 X161.34 Y97.668 E.09603
;WIDTH:0.457938
G1 X161.326 Y99.221 E.05361
;WIDTH:0.448382
G1 X161.34 Y99.91 E.02323
;WIDTH:0.419999
G1 X161.34 Y109.828 E.31097
;WIDTH:0.457938
G1 X161.326 Y111.381 E.05361
;WIDTH:0.448382
G1 X161.34 Y112.07 E.02323
;WIDTH:0.419999
G1 X161.34 Y116.83 E.14924
M204 S1000
;WIPE_START
G1 F8640
G1 X157.226 Y116.833 E-.95
;WIPE_END
G1 E-.05 F2100
G1 Z.4 F720
G1 X159.385 Y96.085 F10800
G1 Z.2 F720
G1 E1 F2100
M204 S800
G1 F1200
G1 X159.569 Y96.203 E.00684
G1 X160.073 Y96.672 E.02159
G1 X160.499 Y97.281 E.02331
G1 X160.711 Y97.747 E.01605
;WIDTH:0.464356
G1 X160.903 Y98.409 E.02415
G1 X160.925 Y99.142 E.02571
;WIDTH:0.44852
G1 X160.923 Y99.184 E.00143
G1 X160.787 Y99.861 E.02327
;WIDTH:0.419999
G1 X160.512 Y100.536 E.02285
G1 X160.1 Y101.137 E.02285
G1 X159.569 Y101.637 E.02287
G1 X159.143 Y101.913 E.01591
G1 X158.49 Y102.185 E.0222
G1 X157.774 Y102.319 E.02283
G1 X157.045 Y102.297 E.02286
G1 X156.549 Y102.191 E.01591
G1 X155.898 Y101.923 E.02206
G1 X155.293 Y101.51 E.02298
G1 X154.93 Y101.149 E.01603
G1 X154.539 Y100.585 E.02152
G1 X154.32 Y100.124 E.016
G1 X154.139 Y99.426 E.02264
G1 X154.108 Y98.697 E.02285
G1 X154.233 Y97.979 E.02285
G1 X154.508 Y97.304 E.02285
G1 X154.92 Y96.703 E.02286
G1 X155.292 Y96.331 E.0165
G1 X155.858 Y95.938 E.02159
G1 X156.53 Y95.655 E.02285
G1 X157.261 Y95.52 E.02331
G1 X157.773 Y95.521 E.01605
G1 X158.451 Y95.643 E.0216
G1 X159.126 Y95.918 E.02286
G1 X159.335 Y96.052 E.00777
M204 S1000
G1 X159.575 Y95.976 F10800
;WIPE_START
G1 F8640
G1 X159.569 Y96.203 E-.06426
G1 X160.073 Y96.672 E-.15903
G1 X160.499 Y97.281 E-.17167
G1 X160.711 Y97.747 E-.11819
;WIPE_END
G1 E-.48685 F2100
G1 Z.4 F720
G1 X158.172 Y114.405 F10800
G1 Z.2 F720
G1 E1 F2100
M204 S800
G1 F1200
G1 X157.774 Y114.479 E.0127
G1 X157.045 Y114.457 E.02286
G1 X156.549 Y114.351 E.01591
G1 X155.894 Y114.082 E.0222
G1 X155.293 Y113.67 E.02284
G1 X154.92 Y113.297 E.01652
G1 X154.521 Y112.719 E.02204
G1 X154.309 Y112.253 E.01605
G1 X154.139 Y111.586 E.02159
G1 X154.108 Y110.857 E.02285
G1 X154.238 Y110.125 E.02331
G1 X154.462 Y109.575 E.01863
G1 X154.91 Y108.877 E.026
G1 X155.451 Y108.363 E.0234
G1 X155.878 Y108.086 E.01595
G1 X156.513 Y107.822 E.02157
G1 X157.271 Y107.679 E.02421
G1 X157.975 Y107.703 E.02209
G1 X158.682 Y107.879 E.02284
G1 X159.156 Y108.094 E.0163
G1 X159.569 Y108.363 E.01545
G1 X160.073 Y108.832 E.02159
G1 X160.499 Y109.441 E.02331
G1 X160.711 Y109.907 E.01605
;WIDTH:0.464356
G1 X160.903 Y110.569 E.02415
G1 X160.925 Y111.302 E.02571
;WIDTH:0.4456
G1 X160.787 Y112.021 E.0245
;WIDTH:0.419999
G1 X160.512 Y112.696 E.02285
G1 X160.1 Y113.297 E.02285
G1 X159.569 Y113.797 E.02287
G1 X159.143 Y114.073 E.01591
G1 X158.49 Y114.345 E.0222
G1 X158.231 Y114.394 E.00826
M204 S1000
G1 X158.057 Y114.788 F10800
;WIPE_START
G1 F8640
G1 X157.774 Y114.479 E-.10735
G1 X157.045 Y114.457 E-.16838
G1 X156.549 Y114.351 E-.11718
G1 X155.894 Y114.082 E-.16351
G1 X155.293 Y113.67 E-.16822
G1 X154.92 Y113.297 E-.12163
G1 X154.665 Y112.927 E-.10374
;WIPE_END
G1 E-.05 F2100
G1 Z.4 F720
G1 X95.039 Y108.82 F10800
G1 Z.2 F720
G1 E1 F2100
M204 S800
G1 F1200
G1 X95.461 Y109.415 E.02286
G1 X95.68 Y109.876 E.016
G1 X95.861 Y110.574 E.02264
G1 X95.892 Y111.303 E.02285
G1 X95.762 Y112.035 E.02331
G1 X95.492 Y112.696 E.02241
G1 X95.08 Y113.297 E.02283
G1 X94.549 Y113.797 E.02286
G1 X94.123 Y114.073 E.01591
G1 X93.469 Y114.346 E.02221
G1 X92.753 Y114.479 E.02283
G1 X92.025 Y114.457 E.02285
G1 X91.529 Y114.351 E.01591
G1 X90.873 Y114.081 E.02221
G1 X90.273 Y113.67 E.02283
G1 X89.773 Y113.139 E.02285
G1 X89.497 Y112.713 E.01591
G1 X89.289 Y112.253 E.01584
;WIDTH:0.457649
G1 X89.1 Y111.59 E.02376
G1 X89.075 Y110.858 E.02527
;WIDTH:0.445599
G1 X89.213 Y110.139 E.0245
;WIDTH:0.419999
G1 X89.488 Y109.464 E.02285
G1 X89.9 Y108.863 E.02285
G1 X90.431 Y108.363 E.02286
G1 X90.874 Y108.078 E.0165
G1 X91.51 Y107.815 E.0216
G1 X92.241 Y107.68 E.02331
G1 X92.955 Y107.703 E.02241
G1 X93.662 Y107.879 E.02284
G1 X93.98 Y108.02 E.0109
G1 X94.707 Y108.49 E.02715
G1 X94.997 Y108.778 E.01279
M204 S1000
G1 X95.432 Y108.742 F10800
;WIPE_START
G1 F8640
G1 X95.461 Y109.415 E-.18202
G1 X95.68 Y109.876 E-.1178
G1 X95.861 Y110.574 E-.16671
G1 X95.892 Y111.303 E-.16829
G1 X95.762 Y112.035 E-.17167
G1 X95.527 Y112.61 E-.14351
;WIPE_END
G1 E-.05 F2100
G1 Z.4 F720
G1 X91.342 Y102.12 F10800
G1 Z.2 F720
G1 E1 F2100
M204 S800
G1 F1200
G1 X91.056 Y102.013 E.00958
G1 X90.463 Y101.661 E.0216
G1 X89.927 Y101.168 E.02285
G1 X89.501 Y100.559 E.02331
G1 X89.289 Y100.093 E.01605
;WIDTH:0.457649
G1 X89.1 Y99.43 E.02376
G1 X89.075 Y98.698 E.02527
;WIDTH:0.445599
G1 X89.213 Y97.979 E.0245
;WIDTH:0.419999
G1 X89.488 Y97.304 E.02285
G1 X89.9 Y96.703 E.02286
G1 X90.272 Y96.331 E.0165
G1 X90.838 Y95.938 E.0216
G1 X91.51 Y95.655 E.02285
G1 X92.241 Y95.52 E.02331
G1 X92.753 Y95.521 E.01605
G1 X93.431 Y95.643 E.0216
G1 X94.106 Y95.918 E.02285
G1 X94.707 Y96.33 E.02286
G1 X95.08 Y96.703 E.01652
G1 X95.479 Y97.281 E.02204
G1 X95.691 Y97.747 E.01605
G1 X95.861 Y98.414 E.02159
G1 X95.892 Y99.143 E.02285
G1 X95.762 Y99.875 E.02331
G1 X95.538 Y100.425 E.01863
G1 X95.09 Y101.123 E.026
G1 X94.549 Y101.637 E.0234
G1 X94.123 Y101.913 E.01591
G1 X93.469 Y102.186 E.02221
G1 X92.753 Y102.319 E.02283
G1 X92.025 Y102.297 E.02285
G1 X91.529 Y102.191 E.01591
G1 X91.398 Y102.142 E.00438
M204 S1000
G1 X91.113 Y102.322 F10800
;WIPE_START
G1 F8640
G1 X91.056 Y102.013 E-.08439
G1 X90.463 Y101.661 E-.15904
G1 X89.927 Y101.168 E-.16829
G1 X89.501 Y100.559 E-.17167
G1 X89.289 Y100.093 E-.11818
;WIPE_END
G1 E-.29843 F2100
G1 Z.4 F720
G1 X160.85 Y101.845 F10800
G1 Z.2 F720
M73 P2 R39
M73 Q2 S40
G1 E1 F2100
M204 S800
;TYPE:Solid infill
;WIDTH:0.420741
G1 F1200
G1 X160.581 Y101.575 E.01195
G1 X160.529 Y101.645 E.00272
G1 X160.312 Y101.841 E.00919
G1 X160.68 Y102.209 E.01635
G1 X160.68 Y102.743 E.01679
G1 X160.031 Y102.095 E.02882
G1 X159.903 Y102.211 E.00543
G1 X159.723 Y102.321 E.00663
G1 X160.68 Y103.278 E.04252
G1 X160.68 Y103.812 E.01679
G1 X159.391 Y102.523 E.05726
G1 X159.016 Y102.682 E.01281
G1 X160.68 Y104.346 E.07394
G1 X160.68 Y104.881 E.01679
G1 X158.628 Y102.829 E.09116
G1 X158.181 Y102.916 E.01432
G1 X160.68 Y105.415 E.11103
G1 X160.68 Y105.949 E.01679
G1 X157.712 Y102.981 E.13187
G1 X157.157 Y102.961 E.01745
G1 X160.68 Y106.484 E.15652
G1 X160.68 Y107.018 E.01679
G1 X156.264 Y102.602 E.19621
M204 S1000
;WIPE_START
G1 F8640
G1 X159.173 Y105.511 E-.95
;WIPE_END
G1 E-.05 F2100
G1 Z.4 F720
G1 X160.85 Y94.364 F10800
G1 Z.2 F720
G1 E1 F2100
M204 S800
G1 F1200
G1 X160.256 Y93.77 E.0264
G1 X159.721 Y93.77 E.01679
G1 X160.68 Y94.729 E.0426
G1 X160.68 Y95.263 E.01679
G1 X159.187 Y93.77 E.06634
G1 X158.653 Y93.77 E.01679
G1 X160.68 Y95.797 E.09008
G1 X160.68 Y96.332 E.01679
G1 X158.118 Y93.77 E.11382
G1 X157.584 Y93.77 E.01679
G1 X158.944 Y95.13 E.06041
G1 X158.572 Y94.995 E.01242
G1 X158.215 Y94.935 E.01136
G1 X157.05 Y93.77 E.05179
G1 X156.515 Y93.77 E.01679
G1 X157.606 Y94.861 E.04846
G1 X157.092 Y94.88 E.01618
G1 X155.981 Y93.77 E.04934
G1 X155.447 Y93.77 E.01679
G1 X156.638 Y94.961 E.05292
G1 X156.449 Y94.995 E.00604
G1 X156.214 Y95.071 E.00776
G1 X154.912 Y93.77 E.05783
G1 X154.378 Y93.77 E.01679
G1 X155.836 Y95.228 E.06478
G1 X155.475 Y95.401 E.01259
G1 X153.844 Y93.77 E.07246
G1 X153.309 Y93.77 E.01679
G1 X155.163 Y95.624 E.08237
G1 X154.852 Y95.847 E.01203
G1 X152.775 Y93.77 E.09227
G1 X152.241 Y93.77 E.01679
G1 X154.583 Y96.112 E.10405
G1 X154.331 Y96.394 E.01189
G1 X151.707 Y93.77 E.11661
G1 X151.172 Y93.77 E.01679
G1 X154.112 Y96.71 E.13062
G1 X153.906 Y97.038 E.01217
G1 X150.638 Y93.77 E.14518
G1 X150.104 Y93.77 E.01679
G1 X153.748 Y97.415 E.16193
G1 X153.601 Y97.802 E.01301
G1 X149.569 Y93.77 E.17913
G1 X149.035 Y93.77 E.01679
G1 X153.514 Y98.249 E.199
G1 X153.449 Y98.718 E.01487
G1 X148.501 Y93.77 E.21983
G1 X147.966 Y93.77 E.01679
G1 X153.472 Y99.276 E.24461
G1 X153.482 Y99.505 E.00721
G1 X153.589 Y99.927 E.01368
G1 X147.432 Y93.77 E.27356
G1 X146.898 Y93.77 E.01679
G1 X153.892 Y100.764 E.31073
G1 X153.951 Y100.892 E.00442
G1 X154.383 Y101.52 E.02396
G1 X154.853 Y102.004 E.0212
G1 X155.512 Y102.465 E.02526
G1 X155.653 Y102.525 E.0048
G1 X160.68 Y107.552 E.22337
G1 X160.68 Y108.087 E.01679
G1 X146.363 Y93.77 E.63608
G1 X145.829 Y93.77 E.01679
M73 Q2 S39
G1 X159.772 Y107.713 E.61947
G1 X159.508 Y107.536 E.00997
G1 X158.982 Y107.287 E.0183
G1 X158.748 Y107.223 E.0076
G1 X145.295 Y93.77 E.59773
G1 X144.76 Y93.77 E.01679
G1 X158.039 Y107.048 E.58995
G1 X157.486 Y107.03 E.01737
G1 X144.226 Y93.77 E.58914
G1 X143.692 Y93.77 E.01679
G1 X156.984 Y107.062 E.59056
G1 X156.533 Y107.145 E.01441
G1 X143.157 Y93.77 E.59425
G1 X142.623 Y93.77 E.01679
G1 X156.125 Y107.271 E.59986
G1 X155.747 Y107.428 E.01284
G1 X142.089 Y93.77 E.60683
G1 X141.554 Y93.77 E.01679
G1 X155.397 Y107.612 E.61499
G1 X155.076 Y107.826 E.0121
G1 X141.02 Y93.77 E.6245
G1 X140.486 Y93.77 E.01679
G1 X154.798 Y108.082 E.63588
G1 X154.52 Y108.338 E.01188
G1 X139.952 Y93.77 E.64726
G1 X139.417 Y93.77 E.01679
G1 X154.28 Y108.633 E.66035
G1 X154.062 Y108.949 E.01207
G1 X138.883 Y93.77 E.67439
G1 X138.349 Y93.77 E.01679
M73 P3 R39
M73 Q3 S39
G1 X153.869 Y109.291 E.68957
G1 X153.711 Y109.666 E.01281
G1 X137.814 Y93.77 E.70625
G1 X137.28 Y93.77 E.01679
G1 X153.578 Y110.067 E.72408
G1 X153.495 Y110.519 E.01442
G1 X136.746 Y93.77 E.74415
G1 X136.211 Y93.77 E.01679
G1 X153.453 Y111.012 E.76605
G1 X153.473 Y111.566 E.01742
G1 X135.677 Y93.77 E.79067
G1 X135.143 Y93.77 E.01679
G1 X153.902 Y112.529 E.83345
M204 S1000
;WIPE_START
G1 F8640
