; generated by PrusaSlicer 2.5.0-alpha3+win64 on 2022-07-31 at 19:01:42 UTC


;
;
; 

; external perimeters extrusion width = 0.45mm
; perimeters extrusion width = 0.45mm
; infill extrusion width = 0.45mm
; solid infill extrusion width = 0.45mm
; top infill extrusion width = 0.40mm
; support material extrusion width = 0.35mm
; first layer extrusion width = 0.42mm

M73 P0 R21
M73 Q0 S21
M201 X1000 Y1000 Z200 E5000 ; sets maximum accelerations, mm/sec^2
M203 X200 Y200 Z12 E120 ; sets maximum feedrates, mm / sec
M204 P1250 R1250 T1250 ; sets acceleration (P, T) and retract acceleration (R), mm/sec^2
M205 X8.00 Y8.00 Z0.40 E4.50 ; sets the jerk limits, mm/sec
M205 S0 T0 ; sets the minimum extruding and travel feed rate, mm/sec
M107
;TYPE:Custom
M862.3 P "MK3S" ; printer model check
M862.1 P0.4 ; nozzle diameter check
M115 U3.11.0 ; tell printer latest fw version
G90 ; use absolute coordinates
M83 ; extruder relative mode
M104 S230 ; set extruder temp
M140 S85 ; set bed temp
M190 S85 ; wait for bed temp
M109 S230 ; wait for extruder temp
G28 W ; home all without mesh bed level
G80 ; mesh bed leveling
G1 Z0.2 F720
G1 Y-3 F1000 ; go outside print area
G92 E0
G1 X60 E9 F1000 ; intro line
G1 X100 E12.5 F1000 ; intro line
G92 E0
M221 S95

; Don't change E values below. Excessive value can damage the printer.

M907 E538 ; set extruder motor current
G21 ; set units to millimeters
G90 ; use absolute coordinates
M83 ; use relative distances for extrusion
M900 K0.08 ; Filament gcode LA 1.5
M900 K45 ; Filament gcode LA 1.0
M107
;LAYER_CHANGE
;Z:0.2
;HEIGHT:0.2
;BEFORE_LAYER_CHANGE
G92 E0.0
;0.2


G1 E-1 F2100
G1 Z.2 F720
;AFTER_LAYER_CHANGE
;0.2
G1 Z.4
G1 X115.015 Y71.693 F10800
G1 Z.2 F720
G1 E1 F2100
M204 S800
;TYPE:Skirt/Brim
;WIDTH:0.42
G1 F1200
G1 X116.06 Y70.817 E.04278
G1 X117 Y70.623 E.03008
G1 X133 Y70.623 E.50167
G1 X134.307 Y71.015 E.04278
G1 X135.183 Y72.06 E.04278
G1 X135.377 Y73 E.03008
G1 X135.377 Y137 E2.00668
G1 X134.985 Y138.307 E.04278
G1 X133.94 Y139.183 E.04278
G1 X133 Y139.377 E.03008
G1 X117 Y139.377 E.50167
G1 X115.693 Y138.985 E.04278
G1 X114.817 Y137.94 E.04278
G1 X114.623 Y137 E.03008
G1 X114.623 Y73 E2.00668
G1 X114.997 Y71.75 E.0409
M204 S1000
; printing object pcb-cover.stl id:0 copy 0
;WIPE_START
M73 P1 R21
M73 Q1 S21
G1 F8640
G1 X116.06 Y70.817 E-.32671
G1 X117 Y70.623 E-.22155
G1 X118.74 Y70.623 E-.40174
;WIPE_END
G1 E-.05 F2100
G1 Z.4 F720
G1 X132.213 Y136.213 F10800
G1 Z.2 F720
G1 E1 F2100
M204 S800
;TYPE:Perimeter
;WIDTH:0.419999
G1 F1200
G1 X117.787 Y136.213 E.45231
G1 X117.787 Y73.787 E1.95732
G1 X132.213 Y73.787 E.45231
G1 X132.213 Y136.153 E1.95543
M204 S1000
G1 X132.59 Y136.59 F10800
M204 S800
;TYPE:External perimeter
G1 F1200
G1 X117.41 Y136.59 E.47596
G1 X117.41 Y73.41 E1.98096
G1 X132.59 Y73.41 E.47596
M73 P2 R21
M73 Q2 S21
G1 X132.59 Y136.53 E1.97908
M204 S1000
G1 X132.229 Y136.418 F10800
;WIPE_START
G1 F8640
G1 X128.476 Y136.546 E-.95
;WIPE_END
G1 E-.05 F2100
G1 Z.4 F720
G1 X131.335 Y73.9 F10800
G1 Z.2 F720
G1 E1 F2100
M204 S800
;TYPE:Solid infill
;WIDTH:0.421072
G1 F1200
G1 X131.93 Y74.495 E.02645
G1 X131.93 Y75.03 E.01682
G1 X130.97 Y74.07 E.04269
G1 X130.435 Y74.07 E.01682
G1 X131.93 Y75.565 E.06647
G1 X131.93 Y76.099 E.01682
G1 X129.901 Y74.07 E.09025
G1 X129.366 Y74.07 E.01682
G1 X131.93 Y76.634 E.11403
G1 X131.93 Y77.169 E.01682
G1 X128.831 Y74.07 E.13781
G1 X128.296 Y74.07 E.01682
G1 X131.93 Y77.704 E.16159
G1 X131.93 Y78.239 E.01682
G1 X127.761 Y74.07 E.18537
G1 X127.227 Y74.07 E.01682
G1 X131.93 Y78.773 E.20915
G1 X131.93 Y79.308 E.01682
G1 X126.692 Y74.07 E.23293
G1 X126.157 Y74.07 E.01682
G1 X131.93 Y79.843 E.25671
G1 X131.93 Y80.378 E.01682
G1 X125.622 Y74.07 E.2805
G1 X125.087 Y74.07 E.01682
G1 X131.93 Y80.913 E.30428
G1 X131.93 Y81.447 E.01682
M73 P2 R20
G1 X124.553 Y74.07 E.32806
G1 X124.018 Y74.07 E.01682
G1 X131.93 Y81.982 E.35184
G1 X131.93 Y82.517 E.01682
G1 X123.483 Y74.07 E.37562
G1 X122.948 Y74.07 E.01682
G1 X131.93 Y83.052 E.3994
G1 X131.93 Y83.586 E.01682
M73 P3 R20
M73 Q3 S21
G1 X122.414 Y74.07 E.42318
G1 X121.879 Y74.07 E.01682
G1 X131.93 Y84.121 E.44696
G1 X131.93 Y84.656 E.01682
G1 X121.344 Y74.07 E.47074
G1 X120.809 Y74.07 E.01682
G1 X131.93 Y85.191 E.49452
G1 X131.93 Y85.726 E.01682
G1 X120.274 Y74.07 E.5183
G1 X119.74 Y74.07 E.01682
G1 X131.93 Y86.26 E.54208
G1 X131.93 Y86.795 E.01682
G1 X119.205 Y74.07 E.56587
G1 X118.67 Y74.07 E.01682
G1 X131.93 Y87.33 E.58965
G1 X131.93 Y87.865 E.01682
G1 X118.135 Y74.07 E.61343
G1 X118.07 Y74.07 E.00206
G1 X118.07 Y74.539 E.01476
G1 X131.93 Y88.4 E.61633
G1 X131.93 Y88.934 E.01682
G1 X118.07 Y75.074 E.61633
G1 X118.07 Y75.609 E.01682
G1 X131.93 Y89.469 E.61633
G1 X131.93 Y90.004 E.01682
G1 X118.07 Y76.144 E.61633
G1 X118.07 Y76.678 E.01682
G1 X131.93 Y90.539 E.61633
G1 X131.93 Y91.073 E.01682
M73 P4 R20
M73 Q4 S21
G1 X118.07 Y77.213 E.61633
G1 X118.07 Y77.748 E.01682
G1 X131.93 Y91.608 E.61633
G1 X131.93 Y92.143 E.01682
G1 X118.07 Y78.283 E.61633
G1 X118.07 Y78.818 E.01682
G1 X131.93 Y92.678 E.61633
G1 X131.93 Y93.213 E.01682
G1 X118.07 Y79.352 E.61633
G1 X118.07 Y79.887 E.01682
G1 X131.93 Y93.747 E.61633
G1 X131.93 Y94.282 E.01682
M73 Q4 S20
G1 X118.07 Y80.422 E.61633
G1 X118.07 Y80.957 E.01682
G1 X131.93 Y94.817 E.61633
G1 X131.93 Y95.352 E.01682
G1 X118.07 Y81.492 E.61633
G1 X118.07 Y82.026 E.01682
G1 X131.93 Y95.887 E.61633
G1 X131.93 Y96.421 E.01682
G1 X118.07 Y82.561 E.61633
G1 X118.07 Y83.096 E.01682
G1 X131.93 Y96.956 E.61633
G1 X131.93 Y97.491 E.01682
G1 X118.07 Y83.631 E.61633
G1 X118.07 Y84.165 E.01682
M73 P5 R20
M73 Q5 S20
G1 X131.93 Y98.026 E.61633
G1 X131.93 Y98.56 E.01682
G1 X118.07 Y84.7 E.61633
G1 X118.07 Y85.235 E.01682
G1 X131.93 Y99.095 E.61633
G1 X131.93 Y99.63 E.01682
G1 X118.07 Y85.77 E.61633
G1 X118.07 Y86.305 E.01682
G1 X131.93 Y100.165 E.61633
G1 X131.93 Y100.7 E.01682
G1 X118.07 Y86.839 E.61633
G1 X118.07 Y87.374 E.01682
G1 X131.93 Y101.234 E.61633
G1 X131.93 Y101.769 E.01682
G1 X118.07 Y87.909 E.61633
G1 X118.07 Y88.444 E.01682
G1 X131.93 Y102.304 E.61633
G1 X131.93 Y102.839 E.01682
G1 X118.07 Y88.979 E.61633
G1 X118.07 Y89.513 E.01682
G1 X131.93 Y103.374 E.61633
G1 X131.93 Y103.908 E.01682
G1 X118.07 Y90.048 E.61633
G1 X118.07 Y90.583 E.01682
G1 X131.93 Y104.443 E.61633
M73 P6 R20
G1 X131.93 Y104.978 E.01682
M73 Q6 S20
G1 X118.07 Y91.118 E.61633
G1 X118.07 Y91.652 E.01682
G1 X131.93 Y105.513 E.61633
G1 X131.93 Y106.048 E.01682
G1 X118.07 Y92.187 E.61633
G1 X118.07 Y92.722 E.01682
G1 X131.93 Y106.582 E.61633
G1 X131.93 Y107.117 E.01682
G1 X118.07 Y93.257 E.61633
G1 X118.07 Y93.792 E.01682
G1 X131.93 Y107.652 E.61633
G1 X131.93 Y108.187 E.01682
G1 X118.07 Y94.326 E.61633
G1 X118.07 Y94.861 E.01682
G1 X131.93 Y108.721 E.61633
G1 X131.93 Y109.256 E.01682
G1 X118.07 Y95.396 E.61633
G1 X118.07 Y95.931 E.01682
G1 X131.93 Y109.791 E.61633
G1 X131.93 Y110.326 E.01682
G1 X118.07 Y96.466 E.61633
G1 X118.07 Y97 E.01682
G1 X131.93 Y110.861 E.61633
G1 X131.93 Y111.395 E.01682
M73 P7 R20
G1 X118.07 Y97.535 E.61633
G1 X118.07 Y98.07 E.01682
M73 Q7 S20
G1 X131.93 Y111.93 E.61633
G1 X131.93 Y112.465 E.01682
G1 X118.07 Y98.605 E.61633
G1 X118.07 Y99.14 E.01682
G1 X131.93 Y113 E.61633
G1 X131.93 Y113.535 E.01682
G1 X118.07 Y99.674 E.61633
G1 X118.07 Y100.209 E.01682
G1 X131.93 Y114.069 E.61633
G1 X131.93 Y114.604 E.01682
M73 P7 R19
G1 X118.07 Y100.744 E.61633
G1 X118.07 Y101.279 E.01682
G1 X131.93 Y115.139 E.61633
G1 X131.93 Y115.674 E.01682
G1 X118.07 Y101.813 E.61633
G1 X118.07 Y102.348 E.01682
G1 X131.93 Y116.208 E.61633
G1 X131.93 Y116.743 E.01682
G1 X118.07 Y102.883 E.61633
G1 X118.07 Y103.418 E.01682
G1 X131.93 Y117.278 E.61633
G1 X131.93 Y117.813 E.01682
G1 X118.07 Y103.953 E.61633
G1 X118.07 Y104.487 E.01682
M73 P8 R19
G1 X131.93 Y118.348 E.61633
G1 X131.93 Y118.882 E.01682
M73 Q8 S20
G1 X118.07 Y105.022 E.61633
G1 X118.07 Y105.557 E.01682
G1 X131.93 Y119.417 E.61633
G1 X131.93 Y119.952 E.01682
G1 X118.07 Y106.092 E.61633
G1 X118.07 Y106.627 E.01682
G1 X131.93 Y120.487 E.61633
G1 X131.93 Y121.022 E.01682
G1 X118.07 Y107.161 E.61633
G1 X118.07 Y107.696 E.01682
G1 X131.93 Y121.556 E.61633
G1 X131.93 Y122.091 E.01682
G1 X118.07 Y108.231 E.61633
G1 X118.07 Y108.766 E.01682
G1 X131.93 Y122.626 E.61633
G1 X131.93 Y123.161 E.01682
G1 X118.07 Y109.3 E.61633
G1 X118.07 Y109.835 E.01682
G1 X131.93 Y123.696 E.61633
G1 X131.93 Y124.23 E.01682
G1 X118.07 Y110.37 E.61633
G1 X118.07 Y110.905 E.01682
G1 X131.93 Y124.765 E.61633
G1 X131.93 Y125.3 E.01682
M73 P9 R19
G1 X118.07 Y111.44 E.61633
G1 X118.07 Y111.974 E.01682
M73 Q9 S19
G1 X131.93 Y125.835 E.61633
G1 X131.93 Y126.369 E.01682
G1 X118.07 Y112.509 E.61633
G1 X118.07 Y113.044 E.01682
G1 X131.93 Y126.904 E.61633
G1 X131.93 Y127.439 E.01682
G1 X118.07 Y113.579 E.61633
G1 X118.07 Y114.114 E.01682
G1 X131.93 Y127.974 E.61633
G1 X131.93 Y128.509 E.01682
G1 X118.07 Y114.648 E.61633
G1 X118.07 Y115.183 E.01682
G1 X131.93 Y129.043 E.61633
G1 X131.93 Y129.578 E.01682
G1 X118.07 Y115.718 E.61633
G1 X118.07 Y116.253 E.01682
G1 X131.93 Y130.113 E.61633
G1 X131.93 Y130.648 E.01682
G1 X118.07 Y116.788 E.61633
G1 X118.07 Y117.322 E.01682
G1 X131.93 Y131.183 E.61633
G1 X131.93 Y131.717 E.01682
M73 P10 R19
G1 X118.07 Y117.857 E.61633
G1 X118.07 Y118.392 E.01682
G1 X131.93 Y132.252 E.61633
G1 X131.93 Y132.787 E.01682
M73 Q10 S19
G1 X118.07 Y118.927 E.61633
G1 X118.07 Y119.461 E.01682
G1 X131.93 Y133.322 E.61633
G1 X131.93 Y133.856 E.01682
G1 X118.07 Y119.996 E.61633
G1 X118.07 Y120.531 E.01682
G1 X131.93 Y134.391 E.61633
G1 X131.93 Y134.926 E.01682
G1 X118.07 Y121.066 E.61633
G1 X118.07 Y121.601 E.01682
G1 X131.93 Y135.461 E.61633
G1 X131.93 Y135.93 E.01476
G1 X131.865 Y135.93 E.00206
G1 X118.07 Y122.135 E.61342
G1 X118.07 Y122.67 E.01682
G1 X131.33 Y135.93 E.58964
G1 X130.795 Y135.93 E.01682
G1 X118.07 Y123.205 E.56586
G1 X118.07 Y123.74 E.01682
G1 X130.26 Y135.93 E.54208
G1 X129.725 Y135.93 E.01682
G1 X118.07 Y124.275 E.5183
G1 X118.07 Y124.809 E.01682
M73 P11 R19
G1 X129.191 Y135.93 E.49452
G1 X128.656 Y135.93 E.01682
G1 X118.07 Y125.344 E.47074
G1 X118.07 Y125.879 E.01682
G1 X128.121 Y135.93 E.44696
G1 X127.586 Y135.93 E.01682
M73 Q11 S19
G1 X118.07 Y126.414 E.42317
G1 X118.07 Y126.948 E.01682
G1 X127.052 Y135.93 E.39939
G1 X126.517 Y135.93 E.01682
G1 X118.07 Y127.483 E.37561
G1 X118.07 Y128.018 E.01682
G1 X125.982 Y135.93 E.35183
G1 X125.447 Y135.93 E.01682
G1 X118.07 Y128.553 E.32805
G1 X118.07 Y129.088 E.01682
G1 X124.912 Y135.93 E.30427
G1 X124.378 Y135.93 E.01682
G1 X118.07 Y129.622 E.28049
G1 X118.07 Y130.157 E.01682
G1 X123.843 Y135.93 E.25671
G1 X123.308 Y135.93 E.01682
G1 X118.07 Y130.692 E.23293
G1 X118.07 Y131.227 E.01682
G1 X122.773 Y135.93 E.20915
G1 X122.238 Y135.93 E.01682
G1 X118.07 Y131.762 E.18537
G1 X118.07 Y132.296 E.01682
G1 X121.704 Y135.93 E.16159
G1 X121.169 Y135.93 E.01682
G1 X118.07 Y132.831 E.1378
G1 X118.07 Y133.366 E.01682
G1 X120.634 Y135.93 E.11402
G1 X120.099 Y135.93 E.01682
G1 X118.07 Y133.901 E.09024
G1 X118.07 Y134.436 E.01682
G1 X119.564 Y135.93 E.06646
G1 X119.03 Y135.93 E.01682
G1 X118.07 Y134.97 E.04268
G1 X118.07 Y135.505 E.01682
G1 X118.665 Y136.1 E.02645
M204 S1000
; stop printing object pcb-cover.stl id:0 copy 0
;LAYER_CHANGE
;Z:0.4
;HEIGHT:0.2
;BEFORE_LAYER_CHANGE
G92 E0.0
;0.4


;WIPE_START
G1 F8640
G1 X118.07 Y135.505 E-.19421
G1 X118.07 Y134.97 E-.12348
G1 X119.03 Y135.93 E-.31343
G1 X119.564 Y135.93 E-.12348
G1 X118.966 Y135.332 E-.1954
;WIPE_END
G1 E-.05 F2100
G1 Z.4 F720
;AFTER_LAYER_CHANGE
;0.4
M104 S240 ; set temperature
M140 S90 ; set bed temperature
G1 Z.6
G1 X118.966 Y139.377 F10800
G1 Z.4 F720
G1 E1 F2100
;TYPE:Skirt/Brim
;WIDTH:0.42
G1 F3000
G1 X117 Y139.377 E.06165
G1 X115.693 Y138.985 E.04278
G1 X114.817 Y137.94 E.04278
G1 X114.623 Y137 E.03008
G1 X114.623 Y73 E2.00668
G1 X115.015 Y71.693 E.04278
G1 X116.06 Y70.817 E.04278
G1 X117 Y70.623 E.03008
G1 X133 Y70.623 E.50167
G1 X134.307 Y71.015 E.04278
G1 X135.183 Y72.06 E.04278
G1 X135.377 Y73 E.03008
G1 X135.377 Y137 E2.00668
G1 X134.985 Y138.307 E.04278
M73 P12 R19
G1 X133.94 Y139.183 E.04278
G1 X133 Y139.377 E.03008
G1 X119.026 Y139.377 E.43814
; printing object pcb-cover.stl id:0 copy 0
;WIPE_START
G1 F8640
G1 X117 Y139.377 E-.46784
G1 X115.693 Y138.985 E-.31505
G1 X115.228 Y138.431 E-.16711
;WIPE_END
G1 E-.05 F2100
G1 Z.6 F720
G1 X132.368 Y136.368 F10800
G1 Z.4 F720
M73 P12 R18
G1 E1 F2100
M204 S800
;TYPE:Perimeter
;WIDTH:0.449999
G1 F3600
G1 X117.632 Y136.368 E.49879
G1 X117.632 Y73.632 E2.12353
G1 X132.368 Y73.632 E.49879
M73 Q12 S19
G1 X132.368 Y136.308 E2.1215
M204 S1000
G1 X132.769 Y136.775 F10800
M204 S800
;TYPE:External perimeter
G1 F2100
G1 X117.225 Y136.775 E.52614
G1 X117.225 Y73.225 E2.15109
G1 X132.775 Y73.225 E.52635
G1 X132.775 Y136.721 E2.14926
M204 S1000
G1 X132.408 Y136.603 F10800
;WIPE_START
G1 F8640
G1 X128.661 Y136.735 E-.95
;WIPE_END
G1 E-.05 F2100
G1 Z.6 F720
G1 X132.246 Y135.417 F10800
G1 Z.4 F720
G1 E1 F2100
;TYPE:Solid infill
;WIDTH:0.452641
G1 F5857.645
G1 X131.6 Y136.063 E.03109
G1 X131.021 Y136.063 E.01974
G1 X132.063 Y135.021 E.05018
G1 X132.063 Y134.442 E.01974
G1 X130.442 Y136.063 E.0781
G1 X129.862 Y136.063 E.01974
G1 X132.063 Y133.862 E.10602
G1 X132.063 Y133.283 E.01974
G1 X129.283 Y136.063 E.13393
G1 X128.703 Y136.063 E.01974
G1 X132.063 Y132.703 E.16185
G1 X132.063 Y132.124 E.01974
G1 X128.124 Y136.063 E.18977
G1 X127.544 Y136.063 E.01974
G1 X132.063 Y131.544 E.21769
G1 X132.063 Y130.965 E.01974
G1 X126.965 Y136.063 E.2456
G1 X126.386 Y136.063 E.01974
G1 X132.063 Y130.386 E.27352
G1 X132.063 Y129.806 E.01974
G1 X125.806 Y136.063 E.30144
G1 X125.227 Y136.063 E.01974
G1 X132.063 Y129.227 E.32935
G1 X132.063 Y128.647 E.01974
G1 X124.647 Y136.063 E.35727
G1 X124.068 Y136.063 E.01974
G1 X132.063 Y128.068 E.38519
G1 X132.063 Y127.488 E.01974
G1 X123.488 Y136.063 E.41311
G1 X122.909 Y136.063 E.01974
G1 X132.063 Y126.909 E.44102
G1 X132.063 Y126.33 E.01974
G1 X122.33 Y136.063 E.46894
G1 X121.75 Y136.063 E.01974
G1 X132.063 Y125.75 E.49686
G1 X132.063 Y125.171 E.01974
G1 X121.171 Y136.063 E.52477
G1 X120.591 Y136.063 E.01974
G1 X132.063 Y124.591 E.55269
G1 X132.063 Y124.012 E.01974
M73 P13 R18
G1 X120.012 Y136.063 E.58061
G1 X119.432 Y136.063 E.01974
G1 X132.063 Y123.432 E.60853
G1 X132.063 Y122.853 E.01974
G1 X118.853 Y136.063 E.63644
G1 X118.274 Y136.063 E.01974
G1 X132.063 Y122.274 E.66436
G1 X132.063 Y121.694 E.01974
G1 X117.937 Y135.819 E.68055
G1 X117.937 Y135.24 E.01974
G1 X132.063 Y121.115 E.68055
G1 X132.063 Y120.535 E.01974
G1 X117.937 Y134.66 E.68055
G1 X117.937 Y134.081 E.01974
G1 X132.063 Y119.956 E.68055
M73 Q13 S19
G1 X132.063 Y119.376 E.01974
G1 X117.937 Y133.502 E.68055
G1 X117.937 Y132.922 E.01974
G1 X132.063 Y118.797 E.68055
G1 X132.063 Y118.217 E.01974
G1 X117.937 Y132.343 E.68055
G1 X117.937 Y131.763 E.01974
G1 X132.063 Y117.638 E.68055
G1 X132.063 Y117.059 E.01974
G1 X117.937 Y131.184 E.68055
G1 X117.937 Y130.604 E.01974
G1 X132.063 Y116.479 E.68055
G1 X132.063 Y115.9 E.01974
G1 X117.937 Y130.025 E.68055
G1 X117.937 Y129.446 E.01974
G1 X132.063 Y115.32 E.68055
G1 X132.063 Y114.741 E.01974
G1 X117.937 Y128.866 E.68055
G1 X117.937 Y128.287 E.01974
G1 X132.063 Y114.161 E.68055
G1 X132.063 Y113.582 E.01974
G1 X117.937 Y127.707 E.68055
G1 X117.937 Y127.128 E.01974
G1 X132.063 Y113.003 E.68055
G1 X132.063 Y112.423 E.01974
G1 X117.937 Y126.548 E.68055
G1 X117.937 Y125.969 E.01974
G1 X132.063 Y111.844 E.68055
G1 X132.063 Y111.264 E.01974
G1 X117.937 Y125.39 E.68055
G1 X117.937 Y124.81 E.01974
G1 X132.063 Y110.685 E.68055
G1 X132.063 Y110.105 E.01974
G1 X117.937 Y124.231 E.68055
G1 X117.937 Y123.651 E.01974
G1 X132.063 Y109.526 E.68055
G1 X132.063 Y108.947 E.01974
G1 X117.937 Y123.072 E.68055
G1 X117.937 Y122.492 E.01974
G1 X132.063 Y108.367 E.68055
G1 X132.063 Y107.788 E.01974
G1 X117.937 Y121.913 E.68055
G1 X117.937 Y121.333 E.01974
G1 X132.063 Y107.208 E.68055
G1 X132.063 Y106.629 E.01974
G1 X117.937 Y120.754 E.68055
G1 X117.937 Y120.175 E.01974
M73 Q13 S18
G1 X132.063 Y106.049 E.68055
G1 X132.063 Y105.47 E.01974
G1 X117.937 Y119.595 E.68055
G1 X117.937 Y119.016 E.01974
G1 X132.063 Y104.891 E.68055
