; generated by PrusaSlicer 2.5.0-alpha3+win64 on 2022-07-31 at 19:06:16 UTC


;
;
; 

; external perimeters extrusion width = 0.45mm
; perimeters extrusion width = 0.45mm
; infill extrusion width = 0.45mm
; solid infill extrusion width = 0.45mm
; top infill extrusion width = 0.40mm
; support material extrusion width = 0.35mm
; first layer extrusion width = 0.42mm

M73 P0 R170
M73 Q0 S173
M201 X1000 Y1000 Z200 E5000 ; sets maximum accelerations, mm/sec^2
M203 X200 Y200 Z12 E120 ; sets maximum feedrates, mm / sec
M204 P1250 R1250 T1250 ; sets acceleration (P, T) and retract acceleration (R), mm/sec^2
M205 X8.00 Y8.00 Z0.40 E4.50 ; sets the jerk limits, mm/sec
M205 S0 T0 ; sets the minimum extruding and travel feed rate, mm/sec
M107
;TYPE:Custom
M862.3 P "MK3S" ; printer model check
M862.1 P0.4 ; nozzle diameter check
M115 U3.11.0 ; tell printer latest fw version
G90 ; use absolute coordinates
M83 ; extruder relative mode
M104 S230 ; set extruder temp
M140 S85 ; set bed temp
M190 S85 ; wait for bed temp
M109 S230 ; wait for extruder temp
G28 W ; home all without mesh bed level
G80 ; mesh bed leveling
G1 Z0.2 F720
G1 Y-3 F1000 ; go outside print area
G92 E0
G1 X60 E9 F1000 ; intro line
G1 X100 E12.5 F1000 ; intro line
G92 E0
M221 S95

; Don't change E values below. Excessive value can damage the printer.

M907 E538 ; set extruder motor current
G21 ; set units to millimeters
G90 ; use absolute coordinates
M83 ; use relative distances for extrusion
M900 K0.08 ; Filament gcode LA 1.5
M900 K45 ; Filament gcode LA 1.0
M107
;LAYER_CHANGE
;Z:0.2
;HEIGHT:0.2
;BEFORE_LAYER_CHANGE
G92 E0.0
;0.2


G1 E-1 F2100
G1 Z.2 F720
;AFTER_LAYER_CHANGE
;0.2
G1 Z.4
G1 X110.594 Y45.809 F10800
G1 Z.2 F720
G1 E1 F2100
M204 S800
;TYPE:Skirt/Brim
;WIDTH:0.42
G1 F1200
G1 X110.959 Y44.928 E.02992
G1 X111.956 Y44.258 E.03767
G1 X118.043 Y42.1 E.2025
G1 X118.838 Y41.963 E.02526
G1 X127.662 Y41.963 E.2767
G1 X128.338 Y42.061 E.0214
G1 X135.618 Y44.219 E.23808
G1 X136.734 Y44.928 E.04145
G1 X137.419 Y46.372 E.05011
G1 X139.737 Y69.679 E.73439
G1 X139.726 Y140.423 E2.2181
G1 X137.419 Y163.493 E.72698
G1 X136.937 Y164.706 E.04091
G1 X136.749 Y164.951 E.0097
G1 X135.547 Y165.779 E.04576
G1 X128.345 Y167.937 E.23574
G1 X127.662 Y168.037 E.02162
G1 X118.838 Y168.037 E.2767
G1 X118.043 Y167.9 E.02526
G1 X111.956 Y165.743 E.2025
G1 X110.959 Y165.072 E.03767
G1 X110.263 Y163.392 E.05704
G1 X110.263 Y46.609 E3.66165
G1 X110.571 Y45.865 E.02524
M204 S1000
;WIPE_START
G1 F8640
G1 X110.959 Y44.928 E-.2342
G1 X111.956 Y44.258 E-.27743
G1 X113.745 Y43.623 E-.43837
;WIPE_END
G1 E-.05 F2100
G1 Z.4 F720
G1 X116.493 Y47.592 F10800
G1 Z.2 F720
G1 E1 F2100
M204 S800
G1 F1200
G1 X117.281 Y46.312 E.04712
G1 X117.948 Y45.669 E.02904
G1 X118.652 Y45.191 E.02669
G1 X120.016 Y44.705 E.04538
G1 X126.398 Y44.685 E.2001
G1 X127.203 Y44.906 E.02618
G1 X127.971 Y45.258 E.0265
G1 X129.062 Y46.136 E.04389
G1 X129.866 Y47.285 E.04399
G1 X130.307 Y48.622 E.04414
G1 X130.36 Y60.317 E.36668
G1 X132.456 Y60.36 E.06575
G1 X133.552 Y60.708 E.03604
G1 X134.541 Y61.315 E.03637
G1 X135.453 Y62.265 E.04131
G1 X135.984 Y63.2 E.0337
G1 X136.363 Y64.681 E.04794
M73 P0 R169
G1 X136.363 Y145.32 E2.52838
G1 X135.942 Y146.899 E.05127
G1 X135.246 Y147.997 E.04075
G1 X134.283 Y148.879 E.04095
G1 X133.51 Y149.309 E.02774
G1 X132.454 Y149.641 E.03469
G1 X130.363 Y149.683 E.06556
G1 X130.363 Y160.921 E.35234
G1 X130.034 Y162.342 E.04573
G1 X129.313 Y163.588 E.04514
G1 X128.752 Y164.165 E.02522
G1 X128.108 Y164.666 E.02559
G1 X126.33 Y165.32 E.05941
G1 X120.535 Y165.373 E.18171
G1 X119.046 Y164.993 E.04819
G1 X117.709 Y164.134 E.0498
G1 X117.176 Y163.559 E.02461
G1 X116.748 Y162.955 E.0232
G1 X116.137 Y161.006 E.06405
G1 X116.137 Y49.021 E3.51122
G1 X116.478 Y47.65 E.04429
M204 S1000
M73 Q0 S172
G1 X116.844 Y47.743 F10800
M204 S800
G1 F1200
G1 X117.588 Y46.533 E.04453
G1 X118.197 Y45.953 E.02638
G1 X118.804 Y45.537 E.02309
G1 X120.051 Y45.082 E.04159
G1 X126.323 Y45.055 E.19665
G1 X127.088 Y45.265 E.02488
G1 X127.791 Y45.59 E.02429
G1 X128.803 Y46.411 E.04085
G1 X129.54 Y47.476 E.04061
G1 X129.939 Y48.71 E.04066
G1 X129.984 Y60.688 E.37558
G1 X132.369 Y60.728 E.07478
G1 X133.415 Y61.06 E.03442
G1 X134.321 Y61.622 E.03342
G1 X135.163 Y62.507 E.03832
G1 X135.643 Y63.362 E.03074
G1 X135.986 Y64.704 E.04344
G1 X135.986 Y145.295 E2.52687
G1 X135.608 Y146.722 E.04628
G1 X134.941 Y147.773 E.03903
G1 X134.046 Y148.585 E.03789
G1 X133.379 Y148.955 E.02393
G1 X132.367 Y149.273 E.03323
G1 X129.986 Y149.312 E.07467
G1 X129.986 Y160.9 E.36333
G1 X129.692 Y162.179 E.04115
G1 X129.025 Y163.342 E.04205
G1 X128.491 Y163.892 E.02405
G1 X127.901 Y164.35 E.0234
G1 X126.232 Y164.954 E.05565
G1 X120.557 Y164.996 E.17794
G1 X119.17 Y164.635 E.04494
G1 X117.97 Y163.861 E.04479
G1 X117.461 Y163.312 E.02347
G1 X117.073 Y162.762 E.02111
G1 X116.514 Y160.977 E.05863
G1 X116.514 Y49.044 E3.50957
G1 X116.829 Y47.801 E.04023
M204 S1000
G1 X117.193 Y47.895 F10800
M204 S800
G1 F1200
G1 X117.208 Y47.837 E.00186
G1 X117.893 Y46.756 E.04014
G1 X118.444 Y46.237 E.02374
G1 X118.959 Y45.881 E.01963
G1 X120.087 Y45.459 E.03775
G1 X126.249 Y45.426 E.19321
G1 X126.944 Y45.614 E.02258
G1 X127.61 Y45.922 E.02302
G1 X128.542 Y46.685 E.03776
G1 X129.213 Y47.665 E.03723
G1 X129.571 Y48.796 E.03718
G1 X129.608 Y61.061 E.38458
G1 X132.281 Y61.096 E.08383
G1 X133.277 Y61.412 E.03277
G1 X134.099 Y61.928 E.03043
G1 X134.872 Y62.748 E.03533
G1 X135.301 Y63.523 E.02779
G1 X135.609 Y64.728 E.03899
G1 X135.609 Y145.271 E2.52537
G1 X135.273 Y146.547 E.04136
G1 X134.667 Y147.513 E.03575
G1 X133.842 Y148.267 E.03506
G1 X133.247 Y148.602 E.02141
G1 X132.281 Y148.905 E.03173
G1 X129.609 Y148.939 E.08378
G1 X129.609 Y160.878 E.37434
G1 X129.332 Y162.066 E.03825
G1 X128.738 Y163.097 E.03731
G1 X128.249 Y163.603 E.02206
G1 X127.694 Y164.033 E.02202
G1 X126.136 Y164.588 E.05185
G1 X120.579 Y164.619 E.17423
G1 X119.347 Y164.301 E.03989
G1 X118.23 Y163.587 E.0416
G1 X117.746 Y163.065 E.0223
G1 X117.398 Y162.569 E.019
G1 X116.891 Y160.949 E.05324
G1 X116.891 Y49.069 E3.50792
G1 X117.178 Y47.953 E.03613
M204 S1000
G1 X117.542 Y48.049 F10800
M204 S800
G1 F1200
G1 X117.565 Y47.963 E.00278
G1 X118.196 Y46.981 E.03661
G1 X118.691 Y46.522 E.02114
G1 X119.118 Y46.224 E.01632
G1 X120.125 Y45.836 E.03384
G1 X126.175 Y45.797 E.18971
G1 X126.83 Y45.974 E.02126
G1 X127.429 Y46.254 E.02073
G1 X128.281 Y46.958 E.03466
G1 X128.884 Y47.852 E.03382
G1 X129.202 Y48.88 E.03373
G1 X129.231 Y61.435 E.39368
G1 X132.194 Y61.464 E.0929
G1 X133.139 Y61.764 E.03109
G1 X133.876 Y62.233 E.02738
G1 X134.579 Y62.987 E.03234
G1 X134.959 Y63.683 E.02485
G1 X135.232 Y64.752 E.03459
G1 X135.232 Y145.247 E2.52388
G1 X134.937 Y146.373 E.03649
G1 X134.392 Y147.254 E.03248
G1 X133.636 Y147.951 E.03225
G1 X133.114 Y148.248 E.01884
G1 X132.195 Y148.536 E.0302
G1 X129.232 Y148.565 E.0929
G1 X129.232 Y160.856 E.3854
G1 X128.99 Y161.903 E.03369
G1 X128.45 Y162.852 E.03422
G1 X127.988 Y163.33 E.02087
G1 X127.488 Y163.715 E.01977
G1 X126.042 Y164.222 E.04805
G1 X120.603 Y164.242 E.17053
G1 X119.473 Y163.945 E.03665
G1 X118.49 Y163.313 E.03661
G1 X118.032 Y162.818 E.02115
G1 X117.724 Y162.377 E.01687
G1 X117.268 Y160.92 E.04788
G1 X117.268 Y49.093 E3.50624
G1 X117.527 Y48.107 E.03199
M204 S1000
G1 X117.884 Y48.2 F10800
M204 S800
G1 F1200
G1 X117.899 Y48.14 E.00194
G1 X118.471 Y47.24 E.03341
G1 X118.937 Y46.808 E.01994
G1 X119.313 Y46.547 E.01434
G1 X120.226 Y46.201 E.03063
G1 X126.103 Y46.167 E.18425
G1 X126.685 Y46.323 E.01891
G1 X127.246 Y46.585 E.01941
G1 X128.017 Y47.229 E.03149
G1 X128.554 Y48.036 E.03041
G1 X128.833 Y48.961 E.03029
G1 X128.855 Y61.809 E.40283
G1 X132.162 Y61.84 E.10369
G1 X132.959 Y62.096 E.02626
G1 X133.619 Y62.509 E.02441
G1 X134.262 Y63.191 E.02938
G1 X134.601 Y63.802 E.0219
G1 X134.855 Y64.776 E.03157
G1 X134.855 Y145.223 E2.52236
G1 X134.601 Y146.201 E.03168
G1 X134.116 Y146.996 E.0292
G1 X133.428 Y147.636 E.02945
G1 X132.978 Y147.896 E.01631
G1 X132.162 Y148.16 E.02688
G1 X128.855 Y148.191 E.10369
G1 X128.855 Y160.834 E.39641
G1 X128.63 Y161.79 E.03079
G1 X128.163 Y162.607 E.0295
G1 X127.727 Y163.058 E.01968
G1 X127.284 Y163.397 E.01748
G1 X125.95 Y163.855 E.04423
G1 X120.627 Y163.865 E.1669
G1 X119.649 Y163.61 E.03166
G1 X118.75 Y163.039 E.03341
G1 X118.318 Y162.572 E.01994
G1 X118.05 Y162.186 E.01473
G1 X117.645 Y160.891 E.04254
G1 X117.645 Y49.117 E3.5046
G1 X117.869 Y48.258 E.02785
M204 S1000
M73 P0 R168
G1 X118.232 Y48.355 F10800
M204 S800
G1 F1200
G1 X118.256 Y48.266 E.00288
G1 X118.745 Y47.501 E.02846
G1 X119.183 Y47.094 E.01876
G1 X119.507 Y46.871 E.01232
G1 X120.326 Y46.565 E.02742
G1 X126.03 Y46.538 E.17882
G1 X126.571 Y46.683 E.01758
G1 X127.062 Y46.914 E.01702
G1 X127.752 Y47.498 E.02833
G1 X128.223 Y48.218 E.02698
G1 X128.464 Y49.041 E.02688
G1 X128.478 Y62.182 E.41205
G1 X132.129 Y62.217 E.11448
G1 X132.781 Y62.429 E.02149
G1 X133.364 Y62.788 E.02146
G1 X133.946 Y63.398 E.02644
G1 X134.243 Y63.924 E.01893
G1 X134.478 Y64.802 E.02849
G1 X134.478 Y145.198 E2.52077
G1 X134.244 Y146.075 E.02847
M73 Q0 S171
G1 X133.81 Y146.774 E.02578
G1 X133.19 Y147.342 E.02637
G1 X132.808 Y147.559 E.01377
G1 X132.129 Y147.783 E.02244
G1 X128.478 Y147.818 E.11447
G1 X128.478 Y160.813 E.40745
G1 X128.288 Y161.629 E.02628
G1 X127.875 Y162.362 E.02639
G1 X127.466 Y162.785 E.01845
G1 X127.081 Y163.078 E.01514
G1 X125.86 Y163.488 E.0404
G1 X120.652 Y163.488 E.16328
G1 X119.775 Y163.254 E.02845
G1 X119.01 Y162.765 E.02846
G1 X118.604 Y162.326 E.01876
G1 X118.377 Y161.996 E.01256
G1 X118.022 Y160.863 E.03724
G1 X118.022 Y49.142 E3.50291
G1 X118.217 Y48.413 E.02368
M204 S1000
G1 X118.579 Y48.512 F10800
M204 S800
G1 F1200
G1 X118.611 Y48.394 E.00383
G1 X119.018 Y47.761 E.02358
G1 X119.429 Y47.381 E.01756
G1 X119.699 Y47.197 E.01025
G1 X120.425 Y46.931 E.02423
G1 X125.959 Y46.909 E.17351
G1 X126.427 Y47.031 E.01517
G1 X126.878 Y47.244 E.01564
G1 X127.484 Y47.765 E.02507
G1 X127.89 Y48.397 E.02353
G1 X128.094 Y49.118 E.02349
G1 X128.101 Y62.556 E.42135
M73 P1 R168
G1 X132.094 Y62.594 E.12521
G1 X132.639 Y62.779 E.01804
G1 X133.11 Y63.068 E.01732
G1 X133.632 Y63.608 E.02356
G1 X133.886 Y64.049 E.01596
G1 X134.101 Y64.828 E.02533
G1 X134.101 Y145.172 E2.51914
G1 X133.888 Y145.947 E.0252
M73 Q1 S171
G1 X133.507 Y146.549 E.02235
G1 X132.955 Y147.047 E.02329
G1 X132.641 Y147.221 E.01127
G1 X132.094 Y147.406 E.01809
G1 X128.101 Y147.444 E.12521
G1 X128.101 Y160.792 E.4185
G1 X127.945 Y161.47 E.02184
G1 X127.586 Y162.119 E.02323
G1 X127.205 Y162.512 E.01717
G1 X126.879 Y162.758 E.01281
G1 X125.829 Y163.111 E.03473
G1 X120.678 Y163.111 E.16151
G1 X119.904 Y162.898 E.02517
G1 X119.271 Y162.491 E.02358
G1 X118.89 Y162.081 E.01756
G1 X118.704 Y161.807 E.01037
G1 X118.399 Y160.834 E.03198
G1 X118.399 Y49.168 E3.50119
G1 X118.563 Y48.57 E.01946
M204 S1000
G1 X118.924 Y48.672 F10800
M204 S800
G1 F1200
G1 X118.966 Y48.525 E.0048
G1 X119.291 Y48.022 E.01878
G1 X119.674 Y47.668 E.01636
G1 X119.889 Y47.523 E.00812
G1 X120.521 Y47.297 E.02104
G1 X125.889 Y47.28 E.16833
G1 X126.283 Y47.38 E.01272
G1 X126.692 Y47.574 E.0142
G1 X127.216 Y48.031 E.0218
G1 X127.535 Y48.527 E.01847
G1 X127.724 Y49.195 E.02179
G1 X127.724 Y62.929 E.43063
G1 X132.057 Y62.971 E.13588
G1 X132.493 Y63.127 E.0145
G1 X132.857 Y63.349 E.01339
G1 X133.32 Y63.821 E.02073
G1 X133.531 Y64.177 E.01297
G1 X133.724 Y64.855 E.02208
G1 X133.724 Y145.145 E2.51745
G1 X133.534 Y145.815 E.02184
G1 X133.205 Y146.321 E.01891
G1 X132.722 Y146.75 E.02026
G1 X132.499 Y146.871 E.00797
G1 X132.057 Y147.029 E.01471
G1 X127.724 Y147.071 E.13588
G1 X127.724 Y160.771 E.42957
G1 X127.601 Y161.314 E.01748
G1 X127.296 Y161.876 E.02001
G1 X126.945 Y162.239 E.01585
G1 X126.678 Y162.438 E.01044
G1 X125.798 Y162.734 E.0291
G1 X120.705 Y162.734 E.1597
G1 X120.035 Y162.544 E.02184
G1 X119.532 Y162.218 E.01878
G1 X119.177 Y161.835 E.01636
G1 X119.032 Y161.62 E.00814
G1 X118.776 Y160.805 E.02678
G1 X118.776 Y49.195 E3.49945
G1 X118.908 Y48.73 E.01516
M204 S1000
G1 X119.267 Y48.836 F10800
M204 S800
G1 F1200
G1 X119.319 Y48.659 E.00577
G1 X119.564 Y48.283 E.01407
G1 X119.918 Y47.955 E.01513
G1 X120.076 Y47.851 E.00592
G1 X120.615 Y47.663 E.01789
G1 X125.823 Y47.652 E.1633
G1 X126.139 Y47.73 E.01022
G1 X126.506 Y47.903 E.0127
G1 X126.946 Y48.295 E.01848
G1 X127.181 Y48.66 E.01362
G1 X127.347 Y49.223 E.01841
G1 X127.347 Y63.304 E.4415
G1 X131.96 Y63.337 E.14466
G1 X132.346 Y63.475 E.01284
G1 X132.637 Y63.656 E.01076
G1 X133.033 Y64.067 E.01789
G1 X133.177 Y64.308 E.0088
G1 X133.347 Y64.883 E.0188
G1 X133.347 Y145.117 E2.51569
G1 X133.181 Y145.681 E.01844
G1 X132.935 Y146.057 E.01409
G1 X132.519 Y146.431 E.01753
G1 X132.357 Y146.522 E.00583
G1 X131.96 Y146.663 E.01319
G1 X127.347 Y146.696 E.14466
G1 X127.347 Y160.751 E.44068
G1 X127.255 Y161.162 E.01322
G1 X127.006 Y161.633 E.01672
G1 X126.686 Y161.965 E.01446
G1 X126.479 Y162.116 E.00803
G1 X125.767 Y162.356 E.02354
G1 X120.733 Y162.356 E.15786
G1 X120.169 Y162.19 E.01844
G1 X119.793 Y161.945 E.01407
G1 X119.465 Y161.591 E.01513
G1 X119.362 Y161.435 E.00588
G1 X119.153 Y160.776 E.02167
G1 X119.153 Y49.223 E3.49765
G1 X119.25 Y48.893 E.01079
M204 S1000
G1 X119.607 Y49.003 F10800
M204 S800
G1 F1200
G1 X119.671 Y48.797 E.00677
G1 X119.837 Y48.545 E.00948
G1 X120.162 Y48.244 E.01387
G1 X120.258 Y48.182 E.0036
G1 X120.706 Y48.03 E.01482
G1 X125.759 Y48.024 E.15845
G1 X125.997 Y48.08 E.00766
G1 X126.318 Y48.231 E.01111
G1 X126.673 Y48.556 E.01508
G1 X126.829 Y48.797 E.00902
G1 X126.97 Y49.253 E.01495
G1 X126.97 Y63.68 E.45236
G1 X131.864 Y63.702 E.15345
G1 X132.198 Y63.822 E.01112
G1 X132.413 Y63.96 E.00802
G1 X132.745 Y64.31 E.01513
G1 X132.824 Y64.442 E.00483
G1 X132.97 Y64.912 E.01543
G1 X132.97 Y145.088 E2.51384
G1 X132.829 Y145.543 E.01495
M73 P1 R167
G1 X132.663 Y145.795 E.00946
G1 X132.312 Y146.116 E.01491
G1 X132.212 Y146.173 E.0036
G1 X131.864 Y146.298 E.01162
G1 X126.97 Y146.32 E.15345
G1 X126.97 Y160.731 E.45185
G1 X126.909 Y161.009 E.00892
G1 X126.687 Y161.431 E.01496
G1 X126.431 Y161.686 E.01131
G1 X126.282 Y161.794 E.00579
G1 X125.736 Y161.979 E.01806
G1 X120.762 Y161.979 E.15595
G1 X120.307 Y161.839 E.01495
G1 X120.054 Y161.672 E.00948
G1 X119.754 Y161.348 E.01387
G1 X119.693 Y161.253 E.00355
G1 X119.53 Y160.746 E.01667
G1 X119.53 Y49.253 E3.4958
G1 X119.59 Y49.061 E.0063
M204 S1000
M73 Q1 S170
G1 X119.943 Y49.177 F10800
M204 S800
G1 F1200
G1 X120.02 Y48.941 E.00778
G1 X120.11 Y48.807 E.00506
G1 X120.402 Y48.535 E.01251
G1 X120.794 Y48.398 E.01302
G1 X125.737 Y48.401 E.15498
G1 X125.854 Y48.429 E.00377
G1 X126.128 Y48.558 E.0095
G1 X126.397 Y48.813 E.0116
G1 X126.48 Y48.94 E.00476
G1 X126.593 Y49.285 E.01136
G1 X126.593 Y64.057 E.46318
G1 X131.767 Y64.068 E.16224
G1 X132.047 Y64.169 E.00933
G1 X132.184 Y64.26 E.00514
G1 X132.474 Y64.583 E.01361
G1 X132.593 Y64.944 E.01193
G1 X132.593 Y145.056 E2.51185
G1 X132.48 Y145.399 E.01134
G1 X132.39 Y145.534 E.00506
G1 X132.098 Y145.805 E.01251
G1 X131.767 Y145.932 E.0111
G1 X126.593 Y145.943 E.16224
G1 X126.593 Y160.712 E.46307
G1 X126.561 Y160.863 E.00484
G1 X126.398 Y161.187 E.01136
G1 X126.177 Y161.407 E.00977
G1 X126.087 Y161.47 E.00345
G1 X125.704 Y161.602 E.0127
G1 X120.794 Y161.602 E.15396
G1 X120.451 Y161.489 E.01134
G1 X120.316 Y161.4 E.00506
G1 X120.026 Y161.077 E.01361
G1 X119.907 Y160.715 E.01193
G1 X119.907 Y49.285 E3.49384
G1 X119.924 Y49.234 E.00167
M204 S1000
G1 X120.284 Y49.32 F10800
M204 S800
G1 F1200
G1 X120.382 Y49.068 E.00845
G1 X120.616 Y48.851 E.01002
G1 X120.829 Y48.775 E.00709
G1 X125.685 Y48.775 E.15225
G1 X125.935 Y48.884 E.00856
G1 X126.116 Y49.065 E.00802
G1 X126.216 Y49.32 E.00856
G1 X126.216 Y64.434 E.47391
G1 X131.671 Y64.434 E.17104
G1 X131.922 Y64.532 E.00845
G1 X132.139 Y64.766 E.01002
G1 X132.216 Y64.979 E.00709
G1 X132.216 Y145.021 E2.50965
G1 X132.118 Y145.272 E.00845
G1 X131.884 Y145.489 E.01002
G1 X131.671 Y145.566 E.00709
G1 X126.216 Y145.566 E.17104
G1 X126.216 Y160.695 E.47436
G1 X126.106 Y160.945 E.00856
G1 X125.925 Y161.126 E.00802
G1 X125.671 Y161.225 E.00856
G1 X120.829 Y161.225 E.15181
G1 X120.578 Y161.128 E.00845
